;FLAVOR:RepRap
;TIME:10007
;Filament used: 13.67m
;Layer height: 0.2
;Generated with Cura_SteamEngine 3.0.3
T0
M190 S50
M104 S200
M109 S200
M82 ; absolute extrusion mode
G28 ;Home
G1 Z15.0 F6000 ;Move the platform down 15mm
;Prime the extruder
G92 E0
G1 F200 E3
G92 E0
M83 ; relative extrusion mode
;LAYER_COUNT:137
;LAYER:-6
M107
G0 F2571.4 X55.428 Y48.779 Z0.36
G1 F1575 X56.631 Y47.69 E0.1943
G1 X57.504 Y47.023 E0.13155
G1 X57.678 Y46.903 E0.02531
G1 X58.864 Y46.16 E0.16757
G1 X60.304 Y45.45 E0.19224
G1 X61.389 Y45.03 E0.13931
G1 X62.175 Y44.782 E0.09869
G1 X62.822 Y44.609 E0.08019
G1 X63.051 Y44.556 E0.02814
G1 X63.936 Y44.373 E0.10821
G1 X64.125 Y44.341 E0.02295
G1 X65.175 Y44.207 E0.12674
G1 X65.871 Y44.16 E0.08353
G1 X66.893 Y44.153 E0.12237
G1 X67.077 Y44.159 E0.02204
G1 X68.357 Y44.258 E0.15372
G1 X68.551 Y44.282 E0.02341
G1 X69.524 Y44.435 E0.11794
G1 X70.552 Y44.67 E0.12626
G1 X70.733 Y44.72 E0.02248
G1 X71.892 Y45.094 E0.14582
G1 X72.187 Y45.203 E0.03766
G1 X73.15 Y45.601 E0.12477
G1 X73.295 Y45.668 E0.01913
G1 X74.242 Y46.153 E0.1274
G1 X75.008 Y46.613 E0.10699
G1 X75.169 Y46.719 E0.02308
G1 X76.208 Y47.468 E0.15336
G1 X76.584 Y47.77 E0.05774
G1 X77.626 Y48.715 E0.16843
G1 X118.838 Y89.94 E6.97965
G1 X119.341 Y90.383 E0.08026
G1 X119.906 Y90.765 E0.08166
G1 X120.515 Y91.074 E0.08177
G1 X121.157 Y91.304 E0.08166
G1 X121.825 Y91.451 E0.0819
G1 X122.504 Y91.512 E0.08163
G1 X123.192 Y91.487 E0.08243
G1 X123.587 Y91.412 E0.04814
G1 X123.592 Y91.438 E0.00317
G1 X124.972 Y91.103 E0.17004
G1 X125.122 Y91.072 E0.01834
G1 X126.017 Y90.924 E0.10862
G1 X126.187 Y90.902 E0.02052
G1 X127.218 Y90.81 E0.12394
G1 X127.976 Y90.789 E0.0908
G1 X128.207 Y90.789 E0.02766
G1 X129.243 Y90.826 E0.12413
G1 X130.283 Y90.937 E0.12523
G1 X130.458 Y90.962 E0.02117
G1 X131.47 Y91.154 E0.12333
G1 X132.364 Y91.388 E0.11065
G1 X133.369 Y91.724 E0.12688
G1 X133.535 Y91.787 E0.02126
G1 X134.338 Y92.128 E0.10446
G1 X134.527 Y92.216 E0.02496
G1 X135.321 Y92.625 E0.10694
G1 X135.438 Y92.69 E0.01603
G1 X136.217 Y93.165 E0.10925
G1 X136.368 Y93.265 E0.02169
G1 X137.23 Y93.889 E0.12742
G1 X138.03 Y94.562 E0.12518
G1 X138.542 Y95.044 E0.0842
G1 X142.243 Y98.746 E0.62679
G1 X142.851 Y99.4 E0.10692
G1 X142.98 Y99.551 E0.02378
G1 X143.521 Y100.226 E0.10358
G1 X143.643 Y100.39 E0.02447
G1 X144.134 Y101.105 E0.10385
G1 X144.242 Y101.275 E0.02412
G1 X144.671 Y102.01 E0.1019
G1 X144.769 Y102.192 E0.02475
G1 X145.156 Y102.979 E0.10501
G1 X145.232 Y103.148 E0.02219
G1 X145.556 Y103.953 E0.1039
G1 X145.624 Y104.143 E0.02416
G1 X145.896 Y104.99 E0.10652
G1 X145.941 Y105.152 E0.02013
G1 X146.146 Y106 E0.10446
G1 X146.184 Y106.186 E0.02273
G1 X146.33 Y107.065 E0.10669
G1 X146.354 Y107.251 E0.02246
G1 X146.436 Y108.142 E0.10714
G1 X146.464 Y109.011 E0.10411
G1 X146.464 Y109.272 E0.03125
G1 X146.418 Y110.413 E0.13673
G1 X146.291 Y111.505 E0.13163
G1 X146.129 Y112.383 E0.1069
G1 X145.913 Y113.232 E0.10489
G1 X145.785 Y113.889 E0.08015
G1 X145.739 Y114.571 E0.08185
G1 X145.78 Y115.253 E0.08181
G1 X145.908 Y115.923 E0.08167
G1 X146.118 Y116.572 E0.08168
G1 X146.409 Y117.19 E0.08179
G1 X146.777 Y117.769 E0.08215
G1 X147.31 Y118.393 E0.09826
G1 X220.885 Y191.977 E12.45943
G1 X221.389 Y192.42 E0.08035
G1 X221.953 Y192.803 E0.08163
G1 X222.563 Y193.112 E0.08188
G1 X223.205 Y193.341 E0.08161
G1 X223.872 Y193.488 E0.08178
G1 X224.535 Y193.548 E0.07971
G1 X225.702 Y193.582 E0.13979
G1 X226.644 Y193.692 E0.11356
G1 X226.824 Y193.72 E0.02181
G1 X227.793 Y193.908 E0.11819
G1 X227.904 Y193.931 E0.01357
G1 X228.905 Y194.199 E0.12408
G1 X230.041 Y194.593 E0.14397
G1 X231.058 Y195.035 E0.13278
G1 X231.527 Y195.27 E0.06281
G1 X232.387 Y195.76 E0.11851
G1 X233.295 Y196.361 E0.13038
G1 X233.488 Y196.499 E0.02841
G1 X234.351 Y197.176 E0.13133
G1 X235.325 Y198.07 E0.1583
G1 X250.336 Y213.077 E2.54152
G1 X250.946 Y213.733 E0.10726
G1 X251.073 Y213.879 E0.02317
G1 X251.612 Y214.552 E0.10324
G1 X251.744 Y214.729 E0.02644
G1 X252.231 Y215.434 E0.1026
G1 X252.332 Y215.592 E0.02245
G1 X252.863 Y216.511 E0.12709
G1 X253.32 Y217.451 E0.12515
G1 X253.662 Y218.297 E0.10926
G1 X253.721 Y218.462 E0.02098
G1 X253.988 Y219.293 E0.10451
G1 X254.041 Y219.479 E0.02316
G1 X254.291 Y220.522 E0.12842
G1 X254.458 Y221.523 E0.12151
G1 X254.482 Y221.709 E0.02246
G1 X254.561 Y222.569 E0.10341
G1 X254.572 Y222.768 E0.02386
G1 X254.587 Y223.643 E0.10478
G1 X254.583 Y223.84 E0.02359
G1 X254.537 Y224.695 E0.10252
G1 X254.519 Y224.892 E0.02369
G1 X254.38 Y225.929 E0.12528
G1 X254.163 Y226.973 E0.12768
G1 X253.916 Y227.85 E0.10909
G1 X253.715 Y228.479 E0.07907
G1 X253.727 Y228.483 E0.00151
G1 X253.676 Y228.658 E0.02183
G1 X253.569 Y229.334 E0.08195
G1 X253.548 Y230.015 E0.08158
G1 X253.613 Y230.698 E0.08215
G1 X253.802 Y231.481 E0.09645
G1 X253.945 Y231.951 E0.05882
G1 X254.144 Y232.774 E0.10138
G1 X254.185 Y232.971 E0.02409
G1 X254.33 Y233.841 E0.10561
G1 X254.351 Y234.002 E0.01944
G1 X254.445 Y235.051 E0.12611
G1 X254.466 Y235.803 E0.09008
G1 X254.466 Y236.12 E0.03796
G1 X254.42 Y237.261 E0.13673
G1 X254.293 Y238.353 E0.13163
G1 X254.101 Y239.365 E0.12333
G1 X253.87 Y240.25 E0.10952
G1 X253.818 Y240.422 E0.02152
G1 X253.532 Y241.264 E0.10648
G1 X253.468 Y241.43 E0.0213
G1 X253.127 Y242.233 E0.10446
G1 X253.046 Y242.408 E0.02309
G1 X252.63 Y243.216 E0.10882
G1 X252.565 Y243.333 E0.01603
G1 X252.09 Y244.112 E0.10925
G1 X251.99 Y244.263 E0.02169
G1 X251.366 Y245.125 E0.12742
G1 X250.693 Y245.925 E0.12518
G1 X250.211 Y246.437 E0.0842
G1 X246.607 Y250.04 E0.61019
G1 X245.911 Y250.686 E0.1137
G1 X245.772 Y250.805 E0.02191
G1 X245.081 Y251.359 E0.10605
G1 X244.942 Y251.463 E0.02079
G1 X244.227 Y251.956 E0.10399
G1 X244.043 Y252.072 E0.02604
G1 X243.145 Y252.592 E0.12425
G1 X242.2 Y253.051 E0.12579
G1 X241.345 Y253.396 E0.11039
G1 X241.182 Y253.454 E0.02072
G1 X240.339 Y253.725 E0.10603
G1 X240.175 Y253.771 E0.02039
G1 X239.303 Y253.983 E0.10745
G1 X239.141 Y254.016 E0.0198
G1 X238.248 Y254.164 E0.10838
G1 X238.071 Y254.187 E0.02137
G1 X237.177 Y254.27 E0.1075
G1 X236.294 Y254.298 E0.10578
G1 X235.968 Y254.297 E0.03903
G1 X234.844 Y254.252 E0.13469
G1 X233.752 Y254.125 E0.13163
G1 X232.74 Y253.933 E0.12333
G1 X231.839 Y253.698 E0.11149
G1 X231.71 Y253.658 E0.01617
G1 X231.058 Y253.505 E0.08019
G1 X230.379 Y253.434 E0.08174
G1 X229.696 Y253.449 E0.0818
G1 X229.019 Y253.55 E0.08196
G1 X228.308 Y253.756 E0.08863
G1 X227.934 Y253.888 E0.04749
G1 X226.967 Y254.161 E0.12031
G1 X225.966 Y254.371 E0.12247
G1 X225.765 Y254.404 E0.02439
G1 X224.876 Y254.519 E0.10733
G1 X224.72 Y254.534 E0.01877
G1 X223.838 Y254.583 E0.10577
G1 X223.653 Y254.586 E0.02215
G1 X222.605 Y254.563 E0.12551
G1 X221.697 Y254.48 E0.10917
G1 X221.524 Y254.458 E0.02088
G1 X220.472 Y254.28 E0.12775
G1 X219.867 Y254.142 E0.0743
G1 X218.771 Y253.825 E0.13661
G1 X217.763 Y253.449 E0.12882
G1 X216.809 Y253.013 E0.12559
G1 X216.017 Y252.585 E0.10779
G1 X215.852 Y252.487 E0.02298
G1 X214.979 Y251.921 E0.12458
G1 X214.273 Y251.393 E0.10556
G1 X214.096 Y251.248 E0.0274
G1 X212.987 Y250.247 E0.17888
G1 X197.981 Y235.228 E2.54211
G1 X197.042 Y234.191 E0.16751
G1 X196.595 Y233.616 E0.08721
G1 X196.456 Y233.425 E0.02828
G1 X195.957 Y232.7 E0.10538
G1 X195.84 Y232.516 E0.02611
G1 X195.337 Y231.656 E0.11929
G1 X194.844 Y230.643 E0.13489
G1 X194.49 Y229.771 E0.11269
G1 X194.072 Y228.467 E0.16396
G1 X193.974 Y228.084 E0.04734
G1 X193.751 Y227.017 E0.13052
G1 X193.718 Y226.81 E0.0251
G1 X193.568 Y225.533 E0.15395
G1 X193.531 Y224.485 E0.12556
G1 X193.467 Y223.818 E0.08023
G1 X193.314 Y223.151 E0.08194
G1 X193.08 Y222.511 E0.08159
G1 X192.767 Y221.904 E0.08177
G1 X192.379 Y221.342 E0.08177
G1 X191.961 Y220.871 E0.0754
G1 X118.566 Y147.485 E12.42743
G1 X118.063 Y147.042 E0.08026
G1 X117.498 Y146.66 E0.08166
G1 X116.889 Y146.351 E0.08177
G1 X116.246 Y146.122 E0.08173
G1 X115.579 Y145.975 E0.08178
G1 X114.898 Y145.914 E0.08187
G1 X114.212 Y145.939 E0.08219
G1 X113.817 Y146.015 E0.04816
G1 X113.81 Y145.988 E0.00334
G1 X112.448 Y146.319 E0.16783
G1 X112.298 Y146.35 E0.01834
G1 X111.403 Y146.498 E0.10862
G1 X111.233 Y146.52 E0.02052
G1 X110.202 Y146.612 E0.12394
G1 X109.444 Y146.633 E0.0908
G1 X109.118 Y146.632 E0.03903
G1 X107.994 Y146.587 E0.13469
G1 X106.902 Y146.46 E0.13163
G1 X105.89 Y146.268 E0.12333
G1 X104.996 Y146.034 E0.11065
G1 X103.991 Y145.698 E0.12688
G1 X103.825 Y145.635 E0.02126
G1 X103.022 Y145.294 E0.10446
G1 X102.833 Y145.206 E0.02496
G1 X102.039 Y144.797 E0.10694
G1 X101.922 Y144.732 E0.01603
G1 X101.143 Y144.257 E0.10925
G1 X100.992 Y144.157 E0.02169
G1 X100.13 Y143.533 E0.12742
G1 X99.335 Y142.866 E0.12426
G1 X98.757 Y142.316 E0.09553
G1 X95.273 Y138.831 E0.59004
G1 X94.567 Y138.074 E0.12394
G1 X93.896 Y137.246 E0.12761
G1 X93.792 Y137.107 E0.02079
G1 X93.299 Y136.392 E0.10399
G1 X93.183 Y136.208 E0.02604
G1 X92.663 Y135.31 E0.12425
G1 X92.204 Y134.365 E0.12579
G1 X91.856 Y133.504 E0.1112
G1 X91.799 Y133.343 E0.02045
G1 X91.527 Y132.495 E0.10663
G1 X91.481 Y132.331 E0.02039
G1 X91.27 Y131.459 E0.10742
G1 X91.237 Y131.298 E0.01968
G1 X91.09 Y130.408 E0.10801
G1 X91.068 Y130.236 E0.02076
G1 X90.985 Y129.337 E0.1081
G1 X90.957 Y128.467 E0.10422
G1 X90.957 Y128.152 E0.03772
G1 X91.003 Y127.011 E0.13673
G1 X91.13 Y125.919 E0.13163
G1 X91.323 Y124.903 E0.12383
G1 X91.508 Y124.195 E0.08762
G1 X91.636 Y123.538 E0.08015
G1 X91.682 Y122.856 E0.08185
G1 X91.641 Y122.175 E0.08169
G1 X91.514 Y121.504 E0.08177
G1 X91.304 Y120.854 E0.08179
G1 X91.013 Y120.236 E0.08179
G1 X90.645 Y119.658 E0.08204
G1 X90.11 Y119.031 E0.09869
G1 X48.792 Y77.717 E6.99616
G1 X48.028 Y76.886 E0.13516
G1 X47.626 Y76.401 E0.07543
G1 X47.427 Y76.148 E0.03854
G1 X46.878 Y75.404 E0.11071
G1 X46.772 Y75.249 E0.02248
G1 X46.305 Y74.509 E0.10477
G1 X46.215 Y74.353 E0.02156
G1 X45.793 Y73.564 E0.10714
G1 X45.715 Y73.403 E0.02142
G1 X45.294 Y72.441 E0.12573
G1 X45.062 Y71.816 E0.07982
G1 X44.955 Y71.5 E0.03995
G1 X44.678 Y70.584 E0.11458
G1 X44.64 Y70.439 E0.01795
G1 X44.444 Y69.571 E0.10655
G1 X44.411 Y69.389 E0.02215
G1 X44.246 Y68.239 E0.13911
G1 X44.222 Y68.001 E0.02864
G1 X44.158 Y67.035 E0.11592
G1 X44.153 Y66.863 E0.0206
G1 X44.169 Y65.67 E0.14286
G1 X44.257 Y64.708 E0.11567
G1 X44.428 Y63.633 E0.13034
G1 X44.59 Y62.897 E0.09024
G1 X44.663 Y62.611 E0.03534
G1 X44.969 Y61.564 E0.13061
G1 X45.281 Y60.717 E0.10808
G1 X45.74 Y59.683 E0.13546
G1 X46.16 Y58.876 E0.10893
G1 X46.705 Y57.975 E0.12608
G1 X47.324 Y57.095 E0.12882
G1 X47.737 Y56.573 E0.0797
G1 X48.669 Y55.545 E0.16615
G1 X55.428 Y48.779 E1.14511
G0 F2571.4 X56 Y48.261
G1 F1575 X56 Y84.924 E4.3899
G0 F2571.4 X54.4 Y83.324
G1 F1575 X54.4 Y49.808 E4.01309
G0 F2571.4 X52.8 Y51.409
G1 F1575 X52.8 Y81.724 E3.62981
G0 F2571.4 X51.2 Y80.124
G1 F1575 X51.2 Y53.011 E3.24642
G0 F2571.4 X49.6 Y54.613
G1 F1575 X49.6 Y78.524 E2.86302
G0 F2571.4 X48 Y76.852
G1 F1575 X48 Y56.282 E2.46298
G0 F2571.4 X46.4 Y58.479
G1 F1575 X46.4 Y74.659 E1.93734
G0 F2571.4 X44.8 Y70.987
G1 F1575 X44.8 Y62.142 E1.05907
G0 F2571.4 X57.6 Y46.956
G1 F1575 X57.6 Y86.524 E4.73773
G0 F2571.4 X59.2 Y88.123
G1 F1575 X59.2 Y45.994 E5.04438
G0 F2571.4 X60.8 Y45.258
G1 F1575 X60.8 Y89.723 E5.32408
G0 F2571.4 X62.4 Y91.323
G1 F1575 X62.4 Y44.721 E5.57996
G0 F2571.4 X64 Y44.362
G1 F1575 X64 Y92.923 E5.81452
G0 F2571.4 X65.6 Y94.523
G1 F1575 X65.6 Y44.178 E6.02813
G0 F2571.4 X67.2 Y44.169
G1 F1575 X67.2 Y96.123 E6.22079
G0 F2571.4 X68.8 Y97.723
G1 F1575 X68.8 Y44.322 E6.39405
G0 F2571.4 X70.4 Y44.636
G1 F1575 X70.4 Y99.322 E6.54791
G0 F2571.4 X72 Y100.922
G1 F1575 X72 Y45.134 E6.67986
G0 F2571.4 X73.6 Y45.825
G1 F1575 X73.6 Y102.522 E6.7887
G0 F2571.4 X75.2 Y104.122
G1 F1575 X75.2 Y46.742 E6.87048
G0 F2571.4 X76.8 Y47.966
G1 F1575 X76.8 Y105.722 E6.9155
G0 F2571.4 X78.4 Y107.322
G1 F1575 X78.4 Y49.49 E6.9246
G0 F2571.4 X80 Y51.09
G1 F1575 X80 Y108.921 E6.92448
G0 F2571.4 X81.6 Y110.521
G1 F1575 X81.6 Y52.691 E6.92436
G0 F2571.4 X83.2 Y54.291
G1 F1575 X83.2 Y112.121 E6.92436
G0 F2571.4 X84.8 Y113.721
G1 F1575 X84.8 Y55.892 E6.92424
G0 F2571.4 X86.4 Y57.492
G1 F1575 X86.4 Y115.321 E6.92424
G0 F2571.4 X88 Y116.921
G1 F1575 X88 Y59.093 E6.92412
G0 F2571.4 X89.6 Y60.693
G1 F1575 X89.6 Y118.521 E6.92412
G0 F2571.4 X91.2 Y120.633
G1 F1575 X91.2 Y62.294 E6.98531
G0 F2571.4 X92.8 Y63.894
G1 F1575 X92.8 Y135.546 E8.57936
G0 F2571.4 X94.4 Y137.867
G1 F1575 X94.4 Y65.495 E8.66557
G0 F2571.4 X96 Y67.095
G1 F1575 X96 Y139.558 E8.67646
G0 F2571.4 X97.6 Y141.158
G1 F1575 X97.6 Y68.696 E8.67635
G0 F2571.4 X99.2 Y70.296
G1 F1575 X99.2 Y142.737 E8.67383
G0 F2571.4 X100.8 Y144.018
G1 F1575 X100.8 Y71.897 E8.63552
G0 F2571.4 X102.4 Y73.497
G1 F1575 X102.4 Y144.982 E8.55936
G0 F2571.4 X104 Y145.701
G1 F1575 X104 Y75.098 E8.45376
G0 F2571.4 X105.6 Y76.698
G1 F1575 X105.6 Y146.192 E8.32097
G0 F2571.4 X107.2 Y146.494
G1 F1575 X107.2 Y78.299 E8.16543
G0 F2571.4 X108.8 Y79.899
G1 F1575 X108.8 Y146.619 E7.98882
G0 F2571.4 X110.4 Y146.595
G1 F1575 X110.4 Y81.5 E7.79425
G0 F2571.4 X112 Y83.1
G1 F1575 X112 Y146.4 E7.57932
G0 F2571.4 X113.6 Y146.04
G1 F1575 X113.6 Y84.701 E7.34452
G0 F2571.4 X115.2 Y86.301
G1 F1575 X115.2 Y145.941 E7.14108
G0 F2571.4 X116.8 Y146.319
G1 F1575 X116.8 Y87.902 E6.99465
G0 F2571.4 X118.4 Y89.502
G1 F1575 X118.4 Y147.338 E6.92508
G0 F2571.4 X120 Y148.918
G1 F1575 X120 Y90.813 E6.95729
G0 F2571.4 X121.6 Y91.402
G1 F1575 X121.6 Y150.518 E7.07834
G0 F2571.4 X123.2 Y152.118
G1 F1575 X123.2 Y91.485 E7.25998
G0 F2571.4 X124.8 Y91.144
G1 F1575 X124.8 Y153.718 E7.49239
G0 F2571.4 X126.4 Y155.318
G1 F1575 X126.4 Y90.882 E7.71534
G0 F2571.4 X128 Y90.789
G1 F1575 X128 Y156.917 E7.91793
G0 F2571.4 X129.6 Y158.517
G1 F1575 X129.6 Y90.865 E8.10041
G0 F2571.4 X131.2 Y91.103
G1 F1575 X131.2 Y160.117 E8.26349
G0 F2571.4 X132.8 Y161.717
G1 F1575 X132.8 Y91.534 E8.40347
G0 F2571.4 X134.4 Y92.157
G1 F1575 X134.4 Y163.317 E8.52045
G0 F2571.4 X136 Y164.916
G1 F1575 X136 Y93.033 E8.60702
G0 F2571.4 X137.6 Y94.201
G1 F1575 X137.6 Y166.516 E8.65874
G0 F2571.4 X139.2 Y168.116
G1 F1575 X139.2 Y95.703 E8.67048
G0 F2571.4 X140.8 Y97.303
G1 F1575 X140.8 Y169.716 E8.67048
G0 F2571.4 X142.4 Y171.316
G1 F1575 X142.4 Y98.915 E8.66904
G0 F2571.4 X144 Y100.91
G1 F1575 X144 Y172.915 E8.62163
G0 F2571.4 X145.6 Y174.515
G1 F1575 X145.6 Y104.076 E8.43412
G0 F2571.4 X146.239 Y115.197
G0 X146.355 Y115.807
G0 X147.2 Y118.265
G1 F1575 X147.2 Y176.115 E6.92676
G0 F2571.4 X148.8 Y177.715
G1 F1575 X148.8 Y119.884 E6.92448
G0 F2571.4 X150.4 Y121.484
G1 F1575 X150.4 Y179.315 E6.92448
G0 F2571.4 X152 Y180.914
G1 F1575 X152 Y123.084 E6.92436
G0 F2571.4 X153.6 Y124.684
G1 F1575 X153.6 Y182.514 E6.92436
G0 F2571.4 X155.2 Y184.114
G1 F1575 X155.2 Y126.284 E6.92436
G0 F2571.4 X156.8 Y127.885
G1 F1575 X156.8 Y185.714 E6.92424
G0 F2571.4 X158.4 Y187.314
G1 F1575 X158.4 Y129.485 E6.92424
G0 F2571.4 X160 Y131.085
G1 F1575 X160 Y188.913 E6.92412
G0 F2571.4 X161.6 Y190.513
G1 F1575 X161.6 Y132.685 E6.92412
G0 F2571.4 X163.2 Y134.285
G1 F1575 X163.2 Y192.113 E6.92412
G0 F2571.4 X164.8 Y193.713
G1 F1575 X164.8 Y135.886 E6.924
G0 F2571.4 X166.4 Y137.486
G1 F1575 X166.4 Y195.313 E6.924
G0 F2571.4 X168 Y196.912
G1 F1575 X168 Y139.086 E6.92388
G0 F2571.4 X169.6 Y140.686
G1 F1575 X169.6 Y198.512 E6.92388
G0 F2571.4 X171.2 Y200.112
G1 F1575 X171.2 Y142.286 E6.92388
G0 F2571.4 X172.8 Y143.887
G1 F1575 X172.8 Y201.712 E6.92376
G0 F2571.4 X174.4 Y203.312
G1 F1575 X174.4 Y145.487 E6.92376
G0 F2571.4 X176 Y147.087
G1 F1575 X176 Y204.911 E6.92364
G0 F2571.4 X177.6 Y206.511
G1 F1575 X177.6 Y148.687 E6.92364
G0 F2571.4 X179.2 Y150.287
G1 F1575 X179.2 Y208.111 E6.92364
G0 F2571.4 X180.8 Y209.711
G1 F1575 X180.8 Y151.888 E6.92352
G0 F2571.4 X182.4 Y153.488
G1 F1575 X182.4 Y211.311 E6.92352
G0 F2571.4 X184 Y212.91
G1 F1575 X184 Y155.088 E6.9234
G0 F2571.4 X185.6 Y156.688
G1 F1575 X185.6 Y214.51 E6.9234
G0 F2571.4 X187.2 Y216.11
G1 F1575 X187.2 Y158.288 E6.9234
G0 F2571.4 X188.8 Y159.889
G1 F1575 X188.8 Y217.71 E6.92328
G0 F2571.4 X190.4 Y219.31
G1 F1575 X190.4 Y161.489 E6.92328
G0 F2571.4 X192 Y163.089
G1 F1575 X192 Y220.914 E6.92376
G0 F2571.4 X192.874 Y223.288
G0 X193.6 Y225.805
G1 F1575 X193.6 Y164.689 E7.31782
G0 F2571.4 X195.2 Y166.289
