;FLAVOR:RepRap
;TIME:10392
;Filament used: 12.0401m
;Layer height: 0.2
;Generated with Cura_SteamEngine 2.7.0
M190 S50
M104 S200
M109 S200
G28 ;Home
G1 Z15.0 F6000 ;Move the platform down 15mm
;Prime the extruder
G92 E0
G1 F200 E3
G92 E0
;LAYER_COUNT:100
;LAYER:-6
M107
G0 F2142.9 X57.578 Y132.91 Z0.36
G1 F1575 X58.543 Y132.501 E0.1255
G1 X59.558 Y132.152 E0.25401
G1 X60.588 Y131.883 E0.38148
G1 X61.623 Y131.69 E0.50754
G1 X62.701 Y131.572 E0.63739
G1 X63.776 Y131.532 E0.76619
G1 X67.345 Y131.532 E1.19353
G1 X68.407 Y131.57 E1.32077
G1 X69.49 Y131.69 E1.45124
G1 X69.719 Y131.733 E1.47914
G1 X70.426 Y131.6 E1.56528
G1 X71.481 Y131.481 E1.6924
G1 X72.597 Y131.439 E1.82612
G1 X76.287 Y131.439 E2.26795
G1 X77.349 Y131.477 E2.39519
G1 X78.437 Y131.598 E2.52627
G1 X79.459 Y131.786 E2.65069
G1 X80.483 Y132.054 E2.77743
G1 X81.522 Y132.408 E2.90886
G1 X82.481 Y132.815 E3.0336
G1 X83.439 Y133.307 E3.16255
G1 X84.346 Y133.861 E3.28981
G1 X84.75 Y134.15 E3.34929
G1 X120.074 Y134.15 E7.57886
G1 X120.494 Y133.593 E7.66239
G1 X120.918 Y133.09 E7.74116
G1 X121.632 Y132.276 E7.8708
G1 X122.282 Y131.581 E7.98474
G1 X123.293 Y130.659 E8.14858
G1 X123.732 Y130.294 E8.21694
G1 X123.866 Y129.893 E8.26756
G1 X124.276 Y128.928 E8.3931
G1 X124.768 Y127.97 E8.52205
G1 X125.322 Y127.063 E8.64931
G1 X125.944 Y126.193 E8.77737
G1 X126.621 Y125.382 E8.90386
G1 X127.186 Y124.783 E9.00245
G1 X127.28 Y124.689 E9.01837
G1 X128.084 Y123.941 E9.14986
G1 X128.899 Y123.289 E9.27483
G1 X129.781 Y122.682 E9.40303
G1 X130.709 Y122.139 E9.53177
G1 X131.66 Y121.67 E9.65873
G1 X132.646 Y121.273 E9.786
G1 X133.657 Y120.948 E9.91316
G1 X134.7 Y120.694 E10.04169
G1 X135.764 Y120.518 E10.17082
G1 X136.803 Y120.423 E10.29575
G1 X137.642 Y120.4 E10.39625
G1 X142.378 Y120.4 E10.96332
G1 X143.44 Y120.438 E11.09056
G1 X144.528 Y120.559 E11.22164
G1 X145.55 Y120.747 E11.34606
G1 X146.574 Y121.015 E11.4728
G1 X147.614 Y121.369 E11.60434
G1 X148.566 Y121.773 E11.72817
G1 X150.037 Y122.531 E11.92631
G1 X150.701 Y122.142 E12.01846
G1 X151.66 Y121.67 E12.14644
G1 X152.646 Y121.273 E12.27371
G1 X153.657 Y120.948 E12.40086
G1 X154.7 Y120.694 E12.5294
G1 X155.764 Y120.518 E12.65853
G1 X156.803 Y120.423 E12.78345
G1 X157.642 Y120.4 E12.88395
G1 X162.378 Y120.4 E13.45102
G1 X163.44 Y120.438 E13.57826
G1 X164.528 Y120.559 E13.70934
G1 X165.55 Y120.747 E13.83376
G1 X166.574 Y121.015 E13.9605
G1 X167.613 Y121.369 E14.09193
G1 X168.572 Y121.776 E14.21667
G1 X169.53 Y122.268 E14.34562
G1 X170.437 Y122.822 E14.47288
G1 X171.307 Y123.444 E14.60094
G1 X172.118 Y124.121 E14.72743
G1 X172.717 Y124.686 E14.82602
G1 X172.811 Y124.78 E14.84194
G1 X173.559 Y125.584 E14.97343
G1 X174.211 Y126.399 E15.0984
G1 X174.818 Y127.281 E15.2266
G1 X175.361 Y128.209 E15.35534
G1 X175.825 Y129.15 E15.48096
G1 X176.291 Y130.305 E15.63009
G1 X177.015 Y130.932 E15.74477
G1 X177.811 Y131.674 E15.87507
G1 X178.269 Y132.156 E15.95468
G1 X178.644 Y132.581 E16.02255
G1 X179.268 Y133.313 E16.13772
G1 X179.93 Y134.15 E16.26549
G1 X215.253 Y134.15 E20.49495
G1 X215.661 Y133.857 E20.55509
G1 X216.537 Y133.322 E20.67799
G1 X217.516 Y132.817 E20.80989
G1 X218.481 Y132.408 E20.93539
G1 X219.496 Y132.059 E21.0639
G1 X220.526 Y131.79 E21.19137
G1 X221.559 Y131.598 E21.31717
G1 X222.64 Y131.478 E21.44741
G1 X223.714 Y131.439 E21.57609
G1 X227.407 Y131.439 E22.01827
G1 X228.469 Y131.477 E22.14552
G1 X229.547 Y131.596 E22.27538
G1 X230.321 Y131.741 E22.36966
G1 X230.534 Y131.688 E22.39595
G1 X231.551 Y131.573 E22.51849
G1 X232.657 Y131.532 E22.65101
G1 X236.225 Y131.532 E23.07823
G1 X237.287 Y131.57 E23.20547
G1 X238.375 Y131.691 E23.33655
G1 X239.397 Y131.879 E23.46097
G1 X240.421 Y132.147 E23.58771
G1 X241.46 Y132.501 E23.71914
G1 X242.419 Y132.908 E23.84388
G1 X243.377 Y133.4 E23.97283
G1 X244.284 Y133.954 E24.10009
G1 X245.154 Y134.576 E24.22815
G1 X245.969 Y135.254 E24.35508
G1 X246.727 Y135.985 E24.48117
G1 X247.452 Y136.794 E24.61125
G1 X248.108 Y137.643 E24.73971
G1 X248.686 Y138.516 E24.86508
G1 X249.217 Y139.462 E24.99497
G1 X249.689 Y140.473 E25.12857
G1 X250.612 Y142.68 E25.41501
G1 X250.992 Y143.687 E25.54388
G1 X251.296 Y144.714 E25.67212
G1 X251.52 Y145.752 E25.79927
G1 X251.669 Y146.8 E25.92602
G1 X251.743 Y147.873 E26.0548
G1 X251.737 Y148.931 E26.18148
G1 X251.652 Y150.006 E26.3106
G1 X251.494 Y151.051 E26.43715
G1 X251.256 Y152.096 E26.56548
G1 X251.096 Y152.616 E26.63062
G1 X251.261 Y153.165 E26.69926
G1 X251.49 Y154.189 E26.8249
G1 X251.648 Y155.257 E26.95417
G1 X251.726 Y156.312 E27.08084
G1 X251.726 Y157.387 E27.20955
G1 X251.65 Y158.443 E27.33632
G1 X251.496 Y159.491 E27.46315
G1 X251.262 Y160.546 E27.59255
G1 X250.958 Y161.558 E27.71907
G1 X250.458 Y162.832 E27.88294
G1 X249.981 Y163.898 E28.02277
G1 X249.569 Y164.848 E28.14676
G1 X249.107 Y165.814 E28.27497
G1 X248.581 Y166.739 E28.40239
G1 X247.985 Y167.627 E28.53044
G1 X247.334 Y168.461 E28.65712
G1 X246.615 Y169.253 E28.7852
G1 X245.834 Y169.996 E28.91427
G1 X245.027 Y170.658 E29.03925
G1 X244.145 Y171.282 E29.16862
G1 X243.22 Y171.839 E29.2979
G1 X242.29 Y172.308 E29.42262
G1 X241.291 Y172.726 E29.55228
G1 X240.301 Y173.057 E29.67727
G1 X239.243 Y173.326 E29.80798
G1 X238.215 Y173.51 E29.93303
G1 X237.135 Y173.621 E30.06302
G1 X236.167 Y173.654 E30.179
G1 X232.724 Y173.654 E30.59125
G1 X231.662 Y173.616 E30.71849
G1 X230.583 Y173.497 E30.84847
G1 X230.01 Y173.39 E30.91827
G1 X229.281 Y173.517 E31.00687
G1 X228.217 Y173.623 E31.1349
G1 X227.29 Y173.654 E31.24596
G1 X223.865 Y173.654 E31.65605
G1 X222.803 Y173.616 E31.7833
G1 X221.715 Y173.495 E31.91437
G1 X220.693 Y173.307 E32.0388
G1 X219.669 Y173.039 E32.16554
G1 X218.63 Y172.685 E32.29696
G1 X217.671 Y172.278 E32.4217
G1 X216.713 Y171.786 E32.55066
G1 X215.806 Y171.232 E32.67791
G1 X215.272 Y170.85 E32.75653
G1 X179.926 Y170.85 E36.98873
G1 X179.506 Y171.407 E37.07226
G1 X179.082 Y171.91 E37.15103
G1 X178.368 Y172.724 E37.28068
G1 X177.719 Y173.418 E37.39445
G1 X176.705 Y174.343 E37.55879
G1 X175.956 Y174.968 E37.6756
G1 X174.882 Y175.785 E37.83717
G1 X174.027 Y176.334 E37.95883
G1 X173.204 Y176.824 E38.07352
G1 X172.239 Y177.351 E38.20517
G1 X171.035 Y177.887 E38.36298
G1 X170.029 Y178.282 E38.49238
G1 X169.039 Y178.63 E38.61803
G1 X167.667 Y178.987 E38.78778
G1 X166.545 Y179.222 E38.92504
G1 X165.611 Y179.386 E39.03859
G1 X164.425 Y179.509 E39.18136
G1 X163.436 Y179.57 E39.3
G1 X162.47 Y179.6 E39.41572
G1 X137.493 Y179.6 E42.40638
G1 X136.429 Y179.562 E42.53386
G1 X135.297 Y179.48 E42.66976
G1 X134.383 Y179.386 E42.77977
G1 X133.052 Y179.147 E42.94169
G1 X131.993 Y178.906 E43.07173
G1 X130.88 Y178.606 E43.20976
G1 X129.701 Y178.182 E43.35978
G1 X128.711 Y177.778 E43.48781
G1 X127.342 Y177.136 E43.66886
G1 X127.314 Y177.121 E43.67266
G1 X126.516 Y176.663 E43.78283
G1 X125.675 Y176.143 E43.90122
G1 X125.011 Y175.709 E43.9962
G1 X123.755 Y174.736 E44.18644
G1 X122.999 Y174.08 E44.30629
G1 X122.188 Y173.325 E44.43896
G1 X121.731 Y172.844 E44.5184
G1 X121.725 Y172.838 E44.51942
G1 X121.361 Y172.424 E44.58543
G1 X120.729 Y171.683 E44.70204
G1 X120.07 Y170.85 E44.82922
G1 X84.787 Y170.85 E49.05388
G1 X84.312 Y171.193 E49.12403
G1 X83.43 Y171.738 E49.24818
G1 X82.468 Y172.241 E49.37816
G1 X81.488 Y172.664 E49.50596
G1 X80.494 Y173.009 E49.63195
G1 X79.448 Y173.288 E49.76157
G1 X78.401 Y173.487 E49.88918
G1 X77.36 Y173.608 E50.01466
G1 X76.191 Y173.654 E50.15474
G1 X72.719 Y173.654 E50.57047
G1 X71.657 Y173.616 E50.69771
G1 X70.582 Y173.497 E50.82721
G1 X70.017 Y173.391 E50.89604
G1 X69.513 Y173.487 E50.95748
G1 X68.47 Y173.608 E51.0832
G1 X67.307 Y173.654 E51.22256
G1 X63.852 Y173.654 E51.63625
G1 X62.79 Y173.616 E51.76349
G1 X61.702 Y173.495 E51.89457
G1 X60.68 Y173.307 E52.01899
G1 X59.656 Y173.039 E52.14573
G1 X58.617 Y172.685 E52.27716
G1 X57.658 Y172.278 E52.4019
G1 X56.7 Y171.786 E52.53085
G1 X55.793 Y171.232 E52.65811
G1 X54.923 Y170.61 E52.78616
G1 X54.108 Y169.932 E52.9131
G1 X53.35 Y169.201 E53.03919
G1 X52.625 Y168.392 E53.16927
G1 X51.969 Y167.543 E53.29773
G1 X51.395 Y166.676 E53.42223
G1 X50.859 Y165.722 E53.55326
G1 X50.454 Y164.868 E53.66643
G1 X50.455 Y164.868 E53.66655
G1 X49.545 Y162.776 E53.93971
G1 X49.159 Y161.793 E54.06616
G1 X48.839 Y160.766 E54.19496
G1 X48.598 Y159.726 E54.32278
G1 X48.434 Y158.686 E54.44885
G1 X48.346 Y157.604 E54.57883
G1 X48.337 Y156.543 E54.70588
G1 X48.404 Y155.488 E54.83245
G1 X48.552 Y154.425 E54.96096
G1 X48.774 Y153.386 E55.08817
G1 X48.945 Y152.792 E55.16219
G1 X48.713 Y152.025 E55.25813
G1 X48.482 Y150.994 E55.38464
G1 X48.325 Y149.929 E55.51354
G1 X48.247 Y148.874 E55.64021
G1 X48.247 Y147.799 E55.76892
G1 X48.323 Y146.743 E55.89569
G1 X48.48 Y145.676 E56.02483
G1 X48.707 Y144.657 E56.14983
G1 X49.015 Y143.629 E56.27832
G1 X49.411 Y142.59 E56.41146
G1 X50.318 Y140.455 E56.68921
G1 X50.783 Y139.463 E56.82039
G1 X51.313 Y138.519 E56.95002
G1 X51.887 Y137.65 E57.07472
G1 X52.547 Y136.794 E57.20414
G1 X53.258 Y136 E57.33176
G1 X54.032 Y135.254 E57.46047
G1 X54.837 Y134.583 E57.58595
G1 X55.708 Y133.96 E57.71418
G1 X56.614 Y133.406 E57.84133
G1 X57.578 Y132.91 E57.97114
G0 F2142.9 X57.6 Y132.9
G1 F1575 X57.6 Y172.248 E62.68253
G0 F2142.9 X59.2 Y172.883
G1 F1575 X59.2 Y132.275 E67.54479
G0 F2142.9 X60.8 Y131.843
G1 F1575 X60.8 Y173.329 E72.51218
G0 F2142.9 X62.4 Y173.572
G1 F1575 X62.4 Y131.604 E77.53728
G0 F2142.9 X64 Y131.532
G1 F1575 X64 Y173.654 E82.58082
G0 F2142.9 X65.6 Y173.654
G1 F1575 X65.6 Y131.532 E87.62436
G0 F2142.9 X67.2 Y131.532
G1 F1575 X67.2 Y173.654 E92.6679
G0 F2142.9 X68.8 Y173.57
G1 F1575 X68.8 Y131.614 E97.69156
G0 F2142.9 X70.4 Y131.604
G1 F1575 X70.4 Y173.462 E102.70349
G0 F2142.9 X72 Y173.628
G1 F1575 X72 Y131.461 E107.75242
G0 F2142.9 X73.6 Y131.439
G1 F1575 X73.6 Y173.654 E112.8071
G0 F2142.9 X75.2 Y173.654
G1 F1575 X75.2 Y131.439 E117.86177
G0 F2142.9 X76.8 Y131.458
G1 F1575 X76.8 Y173.631 E122.91142
G0 F2142.9 X78.4 Y173.488
G1 F1575 X78.4 Y131.594 E127.92766
G0 F2142.9 X80 Y131.928
G1 F1575 X80 Y173.141 E132.86236
G0 F2142.9 X81.6 Y172.616
G1 F1575 X81.6 Y132.442 E137.67265
G0 F2142.9 X83.2 Y133.185
G1 F1575 X83.2 Y171.859 E142.30334
G0 F2142.9 X84.8 Y170.85
G1 F1575 X84.8 Y134.15 E146.69767
G0 F2142.9 X86.4 Y134.15
G1 F1575 X86.4 Y170.85 E151.092
G0 F2142.9 X88 Y170.85
G1 F1575 X88 Y134.15 E155.48633
G0 F2142.9 X89.6 Y134.15
G1 F1575 X89.6 Y170.85 E159.88066
G0 F2142.9 X91.2 Y170.85
G1 F1575 X91.2 Y134.15 E164.27499
G0 F2142.9 X92.8 Y134.15
G1 F1575 X92.8 Y170.85 E168.66932
G0 F2142.9 X94.4 Y170.85
G1 F1575 X94.4 Y134.15 E173.06365
G0 F2142.9 X96 Y134.15
G1 F1575 X96 Y170.85 E177.45798
G0 F2142.9 X97.6 Y170.85
G1 F1575 X97.6 Y134.15 E181.8523
G0 F2142.9 X99.2 Y134.15
G1 F1575 X99.2 Y170.85 E186.24663
G0 F2142.9 X100.8 Y170.85
G1 F1575 X100.8 Y134.15 E190.64096
G0 F2142.9 X102.4 Y134.15
G1 F1575 X102.4 Y170.85 E195.03529
G0 F2142.9 X104 Y170.85
G1 F1575 X104 Y134.15 E199.42962
G0 F2142.9 X105.6 Y134.15
G1 F1575 X105.6 Y170.85 E203.82395
G0 F2142.9 X107.2 Y170.85
G1 F1575 X107.2 Y134.15 E208.21828
G0 F2142.9 X108.8 Y134.15
G1 F1575 X108.8 Y170.85 E212.61261
G0 F2142.9 X110.4 Y170.85
G1 F1575 X110.4 Y134.15 E217.00694
G0 F2142.9 X112 Y134.15
G1 F1575 X112 Y170.85 E221.40127
G0 F2142.9 X113.6 Y170.85
G1 F1575 X113.6 Y134.15 E225.79559
G0 F2142.9 X115.2 Y134.15
G1 F1575 X115.2 Y170.85 E230.18992
G0 F2142.9 X116.8 Y170.85
G1 F1575 X116.8 Y134.15 E234.58425
G0 F2142.9 X118.4 Y134.15
G1 F1575 X118.4 Y170.85 E238.97858
G0 F2142.9 X120 Y170.85
G1 F1575 X120 Y134.15 E243.37291
G0 F2142.9 X121.6 Y132.312
G1 F1575 X121.6 Y172.695 E248.20823
G0 F2142.9 X123.2 Y174.254
G1 F1575 X123.2 Y130.743 E253.41808
G0 F2142.9 X124.8 Y127.917
G1 F1575 X124.8 Y175.545 E259.12089
G0 F2142.9 X126.4 Y176.591
G1 F1575 X126.4 Y125.646 E265.22087
G0 F2142.9 X128 Y124.019
G1 F1575 X128 Y177.444 E271.61779
G0 F2142.9 X129.6 Y178.14
G1 F1575 X129.6 Y122.806 E278.24329
G0 F2142.9 X131.2 Y121.896
G1 F1575 X131.2 Y178.692 E285.04384
G0 F2142.9 X132.8 Y179.089
G1 F1575 X132.8 Y121.223 E291.97251
G0 F2142.9 X134.4 Y120.767
G1 F1575 X134.4 Y179.387 E298.99147
G0 F2142.9 X136 Y179.53
G1 F1575 X136 Y120.496 E306.05999
G0 F2142.9 X137.6 Y120.401
G1 F1575 X137.6 Y179.6 E313.14827
G0 F2142.9 X139.2 Y179.6
G1 F1575 X139.2 Y120.4 E320.23667
G0 F2142.9 X140.8 Y120.4
G1 F1575 X140.8 Y179.6 E327.32507
G0 F2142.9 X142.4 Y179.6
G1 F1575 X142.4 Y120.401 E334.41335
G0 F2142.9 X144 Y120.501
G1 F1575 X144 Y179.6 E341.48966
G0 F2142.9 X145.6 Y179.6
G1 F1575 X145.6 Y120.761 E348.53483
G0 F2142.9 X147.2 Y121.229
G1 F1575 X147.2 Y179.6 E355.52397
G0 F2142.9 X148.8 Y179.6
G1 F1575 X148.8 Y121.894 E362.43348
G0 F2142.9 X150.4 Y122.318
G1 F1575 X150.4 Y179.6 E369.29223
G0 F2142.9 X152 Y179.6
G1 F1575 X152 Y121.533 E376.24497
G0 F2142.9 X153.6 Y120.966
G1 F1575 X153.6 Y179.6 E383.2656
G0 F2142.9 X155.2 Y179.6
G1 F1575 X155.2 Y120.611 E390.32873
G0 F2142.9 X156.8 Y120.423
G1 F1575 X156.8 Y179.6 E397.41438
G0 F2142.9 X158.4 Y179.6
G1 F1575 X158.4 Y120.4 E404.50278
G0 F2142.9 X160 Y120.4
G1 F1575 X160 Y179.6 E411.59118
G0 F2142.9 X161.6 Y179.6
G1 F1575 X161.6 Y120.4 E418.67958
G0 F2142.9 X163.2 Y120.43
G1 F1575 X163.2 Y179.578 E425.76175
G0 F2142.9 X164.8 Y179.471
G1 F1575 X164.8 Y120.61 E432.80956
G0 F2142.9 X166.4 Y120.97
G1 F1575 X166.4 Y179.248 E439.78757
G0 F2142.9 X168 Y178.901
G1 F1575 X168 Y121.534 E446.65649
G0 F2142.9 X169.6 Y122.311
G1 F1575 X169.6 Y178.433 E453.37634
G0 F2142.9 X171.2 Y177.814
G1 F1575 X171.2 Y123.368 E459.89551
G0 F2142.9 X172.8 Y124.769
G1 F1575 X172.8 Y177.045 E466.15486
G0 F2142.9 X174.4 Y176.095
G1 F1575 X174.4 Y126.674 E472.07235
G0 F2142.9 X176 Y129.584
G1 F1575 X176 Y174.932 E477.50216
G0 F2142.9 X177.6 Y173.527
G1 F1575 X177.6 Y131.478 E482.53696
G0 F2142.9 X179.2 Y133.234
G1 F1575 X179.2 Y171.771 E487.15125
G0 F2142.9 X180.8 Y170.85
G1 F1575 X180.8 Y134.15 E491.54558
G0 F2142.9 X182.4 Y134.15
G1 F1575 X182.4 Y170.85 E495.93991
G0 F2142.9 X184 Y170.85
G1 F1575 X184 Y134.15 E500.33424
G0 F2142.9 X185.6 Y134.15
G1 F1575 X185.6 Y170.85 E504.72856
G0 F2142.9 X187.2 Y170.85
G1 F1575 X187.2 Y134.15 E509.12289
G0 F2142.9 X188.8 Y134.15
G1 F1575 X188.8 Y170.85 E513.51722
G0 F2142.9 X190.4 Y170.85
G1 F1575 X190.4 Y134.15 E517.91155
G0 F2142.9 X192 Y134.15
G1 F1575 X192 Y170.85 E522.30588
G0 F2142.9 X193.6 Y170.85
G1 F1575 X193.6 Y134.15 E526.70021
G0 F2142.9 X195.2 Y134.15
G1 F1575 X195.2 Y170.85 E531.09454
G0 F2142.9 X196.8 Y170.85
G1 F1575 X196.8 Y134.15 E535.48887
G0 F2142.9 X198.4 Y134.15
G1 F1575 X198.4 Y170.85 E539.8832
G0 F2142.9 X200 Y170.85
G1 F1575 X200 Y134.15 E544.27753
G0 F2142.9 X201.6 Y134.15
G1 F1575 X201.6 Y170.85 E548.67185
G0 F2142.9 X203.2 Y170.85
G1 F1575 X203.2 Y134.15 E553.06618
G0 F2142.9 X204.8 Y134.15
G1 F1575 X204.8 Y170.85 E557.46051
G0 F2142.9 X206.4 Y170.85
G1 F1575 X206.4 Y134.15 E561.85484
G0 F2142.9 X208 Y134.15
G1 F1575 X208 Y170.85 E566.24917
G0 F2142.9 X209.6 Y170.85
G1 F1575 X209.6 Y134.15 E570.6435
G0 F2142.9 X211.2 Y134.15
G1 F1575 X211.2 Y170.85 E575.03783
G0 F2142.9 X212.8 Y170.85
G1 F1575 X212.8 Y134.15 E579.43216
G0 F2142.9 X214.4 Y134.15
G1 F1575 X214.4 Y170.85 E583.82649
G0 F2142.9 X216 Y171.35
G1 F1575 X216 Y133.649 E588.34067
G0 F2142.9 X217.6 Y132.781
G1 F1575 X217.6 Y172.241 E593.06547
G0 F2142.9 X219.2 Y172.879
G1 F1575 X219.2 Y132.16 E597.94102
G0 F2142.9 X220.8 Y131.739
G1 F1575 X220.8 Y173.326 E602.92051
G0 F2142.9 X222.4 Y173.571
G1 F1575 X222.4 Y131.504 E607.95746
G0 F2142.9 X224 Y131.439
G1 F1575 X224 Y173.654 E613.01214
G0 F2142.9 X225.6 Y173.654
G1 F1575 X225.6 Y131.439 E618.06681
G0 F2142.9 X227.2 Y131.439
G1 F1575 X227.2 Y173.654 E623.12149
G0 F2142.9 X228.8 Y173.565
G1 F1575 X228.8 Y131.514 E628.15653
G0 F2142.9 X230.4 Y131.721
G1 F1575 X230.4 Y173.462 E633.15445
G0 F2142.9 X232 Y173.628
G1 F1575 X232 Y131.556 E638.192
G0 F2142.9 X233.6 Y131.532
G1 F1575 X233.6 Y173.654 E643.23554
G0 F2142.9 X235.2 Y173.654
G1 F1575 X235.2 Y131.532 E648.27908
G0 F2142.9 X236.8 Y131.553
G1 F1575 X236.8 Y173.633 E653.31759
G0 F2142.9 X238.4 Y173.477
G1 F1575 X238.4 Y131.696 E658.3203
G0 F2142.9 X240 Y132.037
G1 F1575 X240 Y173.134 E663.24111
G0 F2142.9 X241.6 Y172.597
