;FLAVOR:RepRap
;TIME:10429
;Filament used: 12.051m
;Layer height: 0.2
;Generated with Cura_SteamEngine 2.7.0
M190 S50
M104 S200
M109 S200
G28 ;Home
G1 Z15.0 F6000 ;Move the platform down 15mm
;Prime the extruder
G92 E0
G1 F200 E3
G92 E0
;LAYER_COUNT:100
;LAYER:-6
M107
G0 F2142.9 X57.578 Y132.91 Z0.36
G1 F1575 X58.543 Y132.501 E0.1255
G1 X59.558 Y132.152 E0.25401
G1 X60.588 Y131.883 E0.38148
G1 X61.623 Y131.69 E0.50754
G1 X62.701 Y131.572 E0.63739
G1 X63.776 Y131.532 E0.76619
G1 X67.345 Y131.532 E1.19353
G1 X68.407 Y131.57 E1.32077
G1 X69.49 Y131.69 E1.45124
G1 X69.719 Y131.733 E1.47914
G1 X70.426 Y131.6 E1.56528
G1 X71.481 Y131.481 E1.6924
G1 X72.597 Y131.439 E1.82612
G1 X76.287 Y131.439 E2.26795
G1 X77.349 Y131.477 E2.39519
G1 X78.437 Y131.598 E2.52627
G1 X79.459 Y131.786 E2.65069
G1 X80.483 Y132.054 E2.77743
G1 X81.522 Y132.408 E2.90886
G1 X82.481 Y132.815 E3.0336
G1 X83.439 Y133.307 E3.16255
G1 X84.346 Y133.861 E3.28981
G1 X84.75 Y134.15 E3.34929
G1 X120.074 Y134.15 E7.57886
G1 X120.494 Y133.593 E7.66239
G1 X120.918 Y133.09 E7.74116
G1 X121.632 Y132.276 E7.8708
G1 X122.282 Y131.581 E7.98474
G1 X123.293 Y130.659 E8.14858
G1 X123.732 Y130.294 E8.21694
G1 X123.866 Y129.893 E8.26756
G1 X124.276 Y128.928 E8.3931
G1 X124.768 Y127.97 E8.52205
G1 X125.322 Y127.063 E8.64931
G1 X125.944 Y126.193 E8.77737
G1 X126.621 Y125.382 E8.90386
G1 X127.186 Y124.783 E9.00245
G1 X127.28 Y124.689 E9.01837
G1 X128.084 Y123.941 E9.14986
G1 X128.899 Y123.289 E9.27483
G1 X129.781 Y122.682 E9.40303
G1 X130.709 Y122.139 E9.53177
G1 X131.66 Y121.67 E9.65873
G1 X132.646 Y121.273 E9.786
G1 X133.657 Y120.948 E9.91316
G1 X134.7 Y120.694 E10.04169
G1 X135.764 Y120.518 E10.17082
G1 X136.803 Y120.423 E10.29575
G1 X137.642 Y120.4 E10.39625
G1 X142.378 Y120.4 E10.96332
G1 X143.44 Y120.438 E11.09056
G1 X144.528 Y120.559 E11.22164
G1 X145.55 Y120.747 E11.34606
G1 X146.574 Y121.015 E11.4728
G1 X147.614 Y121.369 E11.60434
G1 X148.566 Y121.773 E11.72817
G1 X150.037 Y122.531 E11.92631
G1 X150.701 Y122.142 E12.01846
G1 X151.66 Y121.67 E12.14644
G1 X152.646 Y121.273 E12.27371
G1 X153.657 Y120.948 E12.40086
G1 X154.7 Y120.694 E12.5294
G1 X155.764 Y120.518 E12.65853
G1 X156.803 Y120.423 E12.78345
G1 X157.642 Y120.4 E12.88395
G1 X162.378 Y120.4 E13.45102
G1 X163.44 Y120.438 E13.57826
G1 X164.528 Y120.559 E13.70934
G1 X165.55 Y120.747 E13.83376
G1 X166.574 Y121.015 E13.9605
G1 X167.613 Y121.369 E14.09193
G1 X168.572 Y121.776 E14.21667
G1 X169.53 Y122.268 E14.34562
G1 X170.437 Y122.822 E14.47288
G1 X171.307 Y123.444 E14.60094
G1 X172.118 Y124.121 E14.72743
G1 X172.717 Y124.686 E14.82602
G1 X172.811 Y124.78 E14.84194
G1 X173.559 Y125.584 E14.97343
G1 X174.211 Y126.399 E15.0984
G1 X174.818 Y127.281 E15.2266
G1 X175.361 Y128.209 E15.35534
G1 X175.825 Y129.15 E15.48096
G1 X176.291 Y130.305 E15.63009
G1 X177.015 Y130.932 E15.74477
G1 X177.811 Y131.674 E15.87507
G1 X178.269 Y132.156 E15.95468
G1 X178.644 Y132.581 E16.02255
G1 X179.268 Y133.313 E16.13772
G1 X179.93 Y134.15 E16.26549
G1 X215.253 Y134.15 E20.49495
G1 X215.661 Y133.857 E20.55509
G1 X216.537 Y133.322 E20.67799
G1 X217.516 Y132.817 E20.80989
G1 X218.481 Y132.408 E20.93539
G1 X219.496 Y132.059 E21.0639
G1 X220.526 Y131.79 E21.19137
G1 X221.559 Y131.598 E21.31717
G1 X222.64 Y131.478 E21.44741
G1 X223.714 Y131.439 E21.57609
G1 X227.407 Y131.439 E22.01827
G1 X228.469 Y131.477 E22.14552
G1 X229.547 Y131.596 E22.27538
G1 X230.321 Y131.741 E22.36966
G1 X230.534 Y131.688 E22.39595
G1 X231.551 Y131.573 E22.51849
G1 X232.657 Y131.532 E22.65101
G1 X236.225 Y131.532 E23.07823
G1 X237.287 Y131.57 E23.20547
G1 X238.375 Y131.691 E23.33655
G1 X239.397 Y131.879 E23.46097
G1 X240.421 Y132.147 E23.58771
G1 X241.46 Y132.501 E23.71914
G1 X242.419 Y132.908 E23.84388
G1 X243.377 Y133.4 E23.97283
G1 X244.284 Y133.954 E24.10009
G1 X245.154 Y134.576 E24.22815
G1 X245.969 Y135.254 E24.35508
G1 X246.727 Y135.985 E24.48117
G1 X247.452 Y136.794 E24.61125
G1 X248.108 Y137.643 E24.73971
G1 X248.686 Y138.516 E24.86508
G1 X249.217 Y139.462 E24.99497
G1 X249.689 Y140.473 E25.12857
G1 X250.612 Y142.68 E25.41501
G1 X250.992 Y143.687 E25.54388
G1 X251.296 Y144.714 E25.67212
G1 X251.52 Y145.752 E25.79927
G1 X251.669 Y146.8 E25.92602
G1 X251.743 Y147.873 E26.0548
G1 X251.737 Y148.931 E26.18148
G1 X251.652 Y150.006 E26.3106
G1 X251.494 Y151.051 E26.43715
G1 X251.255 Y152.1 E26.56597
G1 X251.097 Y152.613 E26.63024
G1 X251.263 Y153.165 E26.69926
G1 X251.492 Y154.189 E26.8249
G1 X251.65 Y155.257 E26.95417
G1 X251.728 Y156.312 E27.08084
G1 X251.728 Y157.387 E27.20955
G1 X251.652 Y158.443 E27.33632
G1 X251.496 Y159.504 E27.46473
G1 X251.267 Y160.533 E27.59095
G1 X250.959 Y161.561 E27.71945
G1 X250.452 Y162.847 E27.88496
G1 X250.414 Y162.931 E27.896
G1 X250.4 Y162.931 E27.89768
G1 X249.574 Y164.838 E28.14651
G1 X249.1 Y165.832 E28.27837
G1 X248.577 Y166.746 E28.40446
G1 X247.976 Y167.638 E28.53325
G1 X247.318 Y168.478 E28.66101
G1 X246.597 Y169.27 E28.78925
G1 X245.822 Y170.007 E28.91731
G1 X245.021 Y170.663 E29.04128
G1 X244.131 Y171.291 E29.1717
G1 X243.219 Y171.837 E29.29897
G1 X242.259 Y172.322 E29.42776
G1 X241.285 Y172.728 E29.55411
G1 X240.276 Y173.064 E29.68144
G1 X239.234 Y173.328 E29.81015
G1 X238.196 Y173.513 E29.9364
G1 X237.124 Y173.621 E30.0654
G1 X236.167 Y173.654 E30.18006
G1 X232.724 Y173.654 E30.59231
G1 X231.662 Y173.616 E30.71955
G1 X230.583 Y173.497 E30.84953
G1 X230.01 Y173.39 E30.91933
G1 X229.281 Y173.517 E31.00793
G1 X228.217 Y173.623 E31.13596
G1 X227.29 Y173.654 E31.24702
G1 X223.865 Y173.654 E31.65712
G1 X222.803 Y173.616 E31.78436
G1 X221.715 Y173.495 E31.91543
G1 X220.693 Y173.307 E32.03986
G1 X219.669 Y173.039 E32.1666
G1 X218.63 Y172.685 E32.29803
G1 X217.671 Y172.278 E32.42277
G1 X216.713 Y171.786 E32.55172
G1 X215.806 Y171.232 E32.67897
G1 X215.272 Y170.85 E32.75759
G1 X179.926 Y170.85 E36.9898
G1 X179.506 Y171.407 E37.07332
G1 X179.082 Y171.91 E37.15209
G1 X178.368 Y172.724 E37.28174
G1 X177.711 Y173.426 E37.39687
G1 X176.709 Y174.34 E37.55926
G1 X175.956 Y174.968 E37.67666
G1 X174.882 Y175.785 E37.83824
G1 X174.027 Y176.334 E37.9599
G1 X173.204 Y176.824 E38.07459
G1 X172.239 Y177.351 E38.20624
G1 X171.035 Y177.887 E38.36404
G1 X170.029 Y178.282 E38.49345
G1 X169.039 Y178.63 E38.6191
G1 X167.667 Y178.987 E38.78885
G1 X166.545 Y179.222 E38.92611
G1 X165.611 Y179.386 E39.03965
G1 X164.425 Y179.509 E39.18242
G1 X163.436 Y179.57 E39.30107
G1 X162.47 Y179.6 E39.41679
G1 X137.493 Y179.6 E42.40744
G1 X136.429 Y179.562 E42.53493
G1 X135.297 Y179.48 E42.67082
G1 X134.383 Y179.386 E42.78084
G1 X133.052 Y179.147 E42.94276
G1 X131.993 Y178.906 E43.0728
G1 X130.88 Y178.606 E43.21082
G1 X129.701 Y178.182 E43.36084
G1 X128.711 Y177.778 E43.48887
G1 X127.342 Y177.136 E43.66992
G1 X127.314 Y177.121 E43.67373
G1 X126.516 Y176.663 E43.78389
G1 X125.675 Y176.143 E43.90229
G1 X125.011 Y175.709 E43.99727
G1 X123.755 Y174.736 E44.1875
G1 X122.999 Y174.08 E44.30735
G1 X122.188 Y173.325 E44.44003
G1 X121.731 Y172.844 E44.51947
G1 X121.725 Y172.838 E44.52048
G1 X121.361 Y172.424 E44.58649
G1 X120.729 Y171.683 E44.7031
G1 X120.07 Y170.85 E44.83028
G1 X84.787 Y170.85 E49.05494
G1 X84.312 Y171.193 E49.1251
G1 X83.43 Y171.738 E49.24924
G1 X82.468 Y172.241 E49.37922
G1 X81.488 Y172.664 E49.50703
G1 X80.494 Y173.009 E49.63301
G1 X79.448 Y173.288 E49.76263
G1 X78.401 Y173.487 E49.89024
G1 X77.36 Y173.608 E50.01573
G1 X76.191 Y173.654 E50.15581
G1 X72.72 Y173.654 E50.57141
G1 X71.658 Y173.616 E50.69865
G1 X70.585 Y173.497 E50.82792
G1 X70.014 Y173.39 E50.89748
G1 X69.496 Y173.49 E50.96065
G1 X68.461 Y173.608 E51.08538
G1 X67.303 Y173.654 E51.22414
G1 X63.852 Y173.654 E51.63735
G1 X62.79 Y173.616 E51.76459
G1 X61.702 Y173.495 E51.89567
G1 X60.68 Y173.307 E52.02009
G1 X59.656 Y173.039 E52.14683
G1 X58.617 Y172.685 E52.27826
G1 X57.658 Y172.278 E52.403
G1 X56.7 Y171.786 E52.53195
G1 X55.793 Y171.232 E52.65921
G1 X54.923 Y170.61 E52.78727
G1 X54.108 Y169.932 E52.91421
G1 X53.35 Y169.201 E53.04029
G1 X52.625 Y168.392 E53.17037
G1 X51.969 Y167.543 E53.29883
G1 X51.395 Y166.676 E53.42333
G1 X50.859 Y165.722 E53.55436
G1 X50.454 Y164.868 E53.66753
G1 X50.455 Y164.868 E53.66765
G1 X49.545 Y162.776 E53.94081
G1 X49.159 Y161.793 E54.06726
G1 X48.839 Y160.766 E54.19606
G1 X48.598 Y159.726 E54.32389
G1 X48.434 Y158.686 E54.44995
G1 X48.346 Y157.604 E54.57993
G1 X48.337 Y156.543 E54.70698
G1 X48.404 Y155.488 E54.83355
G1 X48.552 Y154.425 E54.96206
G1 X48.774 Y153.386 E55.08928
G1 X48.945 Y152.792 E55.16329
G1 X48.713 Y152.025 E55.25924
G1 X48.482 Y150.994 E55.38574
G1 X48.325 Y149.929 E55.51464
G1 X48.247 Y148.874 E55.64131
G1 X48.247 Y147.799 E55.77003
G1 X48.323 Y146.743 E55.89679
G1 X48.48 Y145.676 E56.02593
G1 X48.707 Y144.657 E56.15093
G1 X49.015 Y143.629 E56.27943
G1 X49.411 Y142.59 E56.41256
G1 X50.318 Y140.455 E56.69031
G1 X50.783 Y139.463 E56.82149
G1 X51.313 Y138.519 E56.95112
G1 X51.887 Y137.65 E57.07582
G1 X52.547 Y136.794 E57.20524
G1 X53.258 Y136 E57.33286
G1 X54.032 Y135.254 E57.46157
G1 X54.837 Y134.583 E57.58706
G1 X55.708 Y133.96 E57.71528
G1 X56.614 Y133.406 E57.84243
G1 X57.578 Y132.91 E57.97224
G0 F2142.9 X57.6 Y132.9
G1 F1575 X57.6 Y172.248 E62.68363
G0 F2142.9 X59.2 Y172.883
G1 F1575 X59.2 Y132.275 E67.54589
G0 F2142.9 X60.8 Y131.843
G1 F1575 X60.8 Y173.329 E72.51328
G0 F2142.9 X62.4 Y173.572
G1 F1575 X62.4 Y131.604 E77.53838
G0 F2142.9 X64 Y131.532
G1 F1575 X64 Y173.654 E82.58192
G0 F2142.9 X65.6 Y173.654
G1 F1575 X65.6 Y131.532 E87.62546
G0 F2142.9 X67.2 Y131.532
G1 F1575 X67.2 Y173.654 E92.669
G0 F2142.9 X68.8 Y173.57
G1 F1575 X68.8 Y131.614 E97.69267
G0 F2142.9 X70.4 Y131.604
G1 F1575 X70.4 Y173.462 E102.7046
G0 F2142.9 X72 Y173.628
G1 F1575 X72 Y131.461 E107.75352
G0 F2142.9 X73.6 Y131.439
G1 F1575 X73.6 Y173.654 E112.8082
G0 F2142.9 X75.2 Y173.654
G1 F1575 X75.2 Y131.439 E117.86288
G0 F2142.9 X76.8 Y131.458
G1 F1575 X76.8 Y173.631 E122.91252
G0 F2142.9 X78.4 Y173.488
G1 F1575 X78.4 Y131.594 E127.92876
G0 F2142.9 X80 Y131.928
G1 F1575 X80 Y173.141 E132.86346
G0 F2142.9 X81.6 Y172.616
G1 F1575 X81.6 Y132.442 E137.67376
G0 F2142.9 X83.2 Y133.185
G1 F1575 X83.2 Y171.859 E142.30445
G0 F2142.9 X84.8 Y170.85
G1 F1575 X84.8 Y134.15 E146.69877
G0 F2142.9 X86.4 Y134.15
G1 F1575 X86.4 Y170.85 E151.0931
G0 F2142.9 X88 Y170.85
G1 F1575 X88 Y134.15 E155.48743
G0 F2142.9 X89.6 Y134.15
G1 F1575 X89.6 Y170.85 E159.88176
G0 F2142.9 X91.2 Y170.85
G1 F1575 X91.2 Y134.15 E164.27609
G0 F2142.9 X92.8 Y134.15
G1 F1575 X92.8 Y170.85 E168.67042
G0 F2142.9 X94.4 Y170.85
G1 F1575 X94.4 Y134.15 E173.06475
G0 F2142.9 X96 Y134.15
G1 F1575 X96 Y170.85 E177.45908
G0 F2142.9 X97.6 Y170.85
G1 F1575 X97.6 Y134.15 E181.85341
G0 F2142.9 X99.2 Y134.15
G1 F1575 X99.2 Y170.85 E186.24774
G0 F2142.9 X100.8 Y170.85
G1 F1575 X100.8 Y134.15 E190.64206
G0 F2142.9 X102.4 Y134.15
G1 F1575 X102.4 Y170.85 E195.03639
G0 F2142.9 X104 Y170.85
G1 F1575 X104 Y134.15 E199.43072
G0 F2142.9 X105.6 Y134.15
G1 F1575 X105.6 Y170.85 E203.82505
G0 F2142.9 X107.2 Y170.85
G1 F1575 X107.2 Y134.15 E208.21938
G0 F2142.9 X108.8 Y134.15
G1 F1575 X108.8 Y170.85 E212.61371
G0 F2142.9 X110.4 Y170.85
G1 F1575 X110.4 Y134.15 E217.00804
G0 F2142.9 X112 Y134.15
G1 F1575 X112 Y170.85 E221.40237
G0 F2142.9 X113.6 Y170.85
G1 F1575 X113.6 Y134.15 E225.7967
G0 F2142.9 X115.2 Y134.15
G1 F1575 X115.2 Y170.85 E230.19103
G0 F2142.9 X116.8 Y170.85
G1 F1575 X116.8 Y134.15 E234.58536
G0 F2142.9 X118.4 Y134.15
G1 F1575 X118.4 Y170.85 E238.97968
G0 F2142.9 X120 Y170.85
G1 F1575 X120 Y134.15 E243.37401
G0 F2142.9 X121.6 Y132.312
G1 F1575 X121.6 Y172.695 E248.20933
G0 F2142.9 X123.2 Y174.254
G1 F1575 X123.2 Y130.743 E253.41919
G0 F2142.9 X124.8 Y127.917
G1 F1575 X124.8 Y175.545 E259.122
G0 F2142.9 X126.4 Y176.591
G1 F1575 X126.4 Y125.646 E265.22197
G0 F2142.9 X128 Y124.019
G1 F1575 X128 Y177.444 E271.61889
G0 F2142.9 X129.6 Y178.14
G1 F1575 X129.6 Y122.806 E278.24439
G0 F2142.9 X131.2 Y121.896
G1 F1575 X131.2 Y178.692 E285.04494
G0 F2142.9 X132.8 Y179.089
G1 F1575 X132.8 Y121.223 E291.97362
G0 F2142.9 X134.4 Y120.767
G1 F1575 X134.4 Y179.387 E298.99257
G0 F2142.9 X136 Y179.53
G1 F1575 X136 Y120.496 E306.06109
G0 F2142.9 X137.6 Y120.401
G1 F1575 X137.6 Y179.6 E313.14937
G0 F2142.9 X139.2 Y179.6
G1 F1575 X139.2 Y120.4 E320.23777
G0 F2142.9 X140.8 Y120.4
G1 F1575 X140.8 Y179.6 E327.32617
G0 F2142.9 X142.4 Y179.6
G1 F1575 X142.4 Y120.401 E334.41445
G0 F2142.9 X144 Y120.501
G1 F1575 X144 Y179.6 E341.49076
G0 F2142.9 X145.6 Y179.6
G1 F1575 X145.6 Y120.761 E348.53593
G0 F2142.9 X147.2 Y121.229
G1 F1575 X147.2 Y179.6 E355.52507
G0 F2142.9 X148.8 Y179.6
G1 F1575 X148.8 Y121.894 E362.43459
G0 F2142.9 X150.4 Y122.318
G1 F1575 X150.4 Y179.6 E369.29333
G0 F2142.9 X152 Y179.6
G1 F1575 X152 Y121.533 E376.24607
G0 F2142.9 X153.6 Y120.966
G1 F1575 X153.6 Y179.6 E383.2667
G0 F2142.9 X155.2 Y179.6
G1 F1575 X155.2 Y120.611 E390.32984
G0 F2142.9 X156.8 Y120.423
G1 F1575 X156.8 Y179.6 E397.41548
G0 F2142.9 X158.4 Y179.6
G1 F1575 X158.4 Y120.4 E404.50388
G0 F2142.9 X160 Y120.4
G1 F1575 X160 Y179.6 E411.59228
G0 F2142.9 X161.6 Y179.6
G1 F1575 X161.6 Y120.4 E418.68068
G0 F2142.9 X163.2 Y120.43
G1 F1575 X163.2 Y179.578 E425.76286
G0 F2142.9 X164.8 Y179.471
G1 F1575 X164.8 Y120.61 E432.81066
G0 F2142.9 X166.4 Y120.97
G1 F1575 X166.4 Y179.248 E439.78867
G0 F2142.9 X168 Y178.901
G1 F1575 X168 Y121.534 E446.65759
G0 F2142.9 X169.6 Y122.311
G1 F1575 X169.6 Y178.433 E453.37744
G0 F2142.9 X171.2 Y177.814
G1 F1575 X171.2 Y123.368 E459.89661
G0 F2142.9 X172.8 Y124.769
G1 F1575 X172.8 Y177.045 E466.15596
G0 F2142.9 X174.4 Y176.095
G1 F1575 X174.4 Y126.674 E472.07346
G0 F2142.9 X176 Y129.584
G1 F1575 X176 Y174.932 E477.50327
G0 F2142.9 X177.6 Y173.528
G1 F1575 X177.6 Y131.478 E482.53819
G0 F2142.9 X179.2 Y133.234
G1 F1575 X179.2 Y171.771 E487.15247
G0 F2142.9 X180.8 Y170.85
G1 F1575 X180.8 Y134.15 E491.5468
G0 F2142.9 X182.4 Y134.15
G1 F1575 X182.4 Y170.85 E495.94113
G0 F2142.9 X184 Y170.85
G1 F1575 X184 Y134.15 E500.33546
G0 F2142.9 X185.6 Y134.15
G1 F1575 X185.6 Y170.85 E504.72979
G0 F2142.9 X187.2 Y170.85
G1 F1575 X187.2 Y134.15 E509.12412
G0 F2142.9 X188.8 Y134.15
G1 F1575 X188.8 Y170.85 E513.51844
G0 F2142.9 X190.4 Y170.85
G1 F1575 X190.4 Y134.15 E517.91277
G0 F2142.9 X192 Y134.15
G1 F1575 X192 Y170.85 E522.3071
G0 F2142.9 X193.6 Y170.85
G1 F1575 X193.6 Y134.15 E526.70143
G0 F2142.9 X195.2 Y134.15
G1 F1575 X195.2 Y170.85 E531.09576
G0 F2142.9 X196.8 Y170.85
G1 F1575 X196.8 Y134.15 E535.49009
G0 F2142.9 X198.4 Y134.15
G1 F1575 X198.4 Y170.85 E539.88442
G0 F2142.9 X200 Y170.85
G1 F1575 X200 Y134.15 E544.27875
G0 F2142.9 X201.6 Y134.15
G1 F1575 X201.6 Y170.85 E548.67308
G0 F2142.9 X203.2 Y170.85
G1 F1575 X203.2 Y134.15 E553.06741
G0 F2142.9 X204.8 Y134.15
G1 F1575 X204.8 Y170.85 E557.46173
G0 F2142.9 X206.4 Y170.85
G1 F1575 X206.4 Y134.15 E561.85606
G0 F2142.9 X208 Y134.15
G1 F1575 X208 Y170.85 E566.25039
G0 F2142.9 X209.6 Y170.85
G1 F1575 X209.6 Y134.15 E570.64472
G0 F2142.9 X211.2 Y134.15
G1 F1575 X211.2 Y170.85 E575.03905
G0 F2142.9 X212.8 Y170.85
G1 F1575 X212.8 Y134.15 E579.43338
G0 F2142.9 X214.4 Y134.15
G1 F1575 X214.4 Y170.85 E583.82771
G0 F2142.9 X216 Y171.35
G1 F1575 X216 Y133.649 E588.34189
G0 F2142.9 X217.6 Y132.781
G1 F1575 X217.6 Y172.241 E593.0667
G0 F2142.9 X219.2 Y172.879
G1 F1575 X219.2 Y132.16 E597.94225
G0 F2142.9 X220.8 Y131.739
G1 F1575 X220.8 Y173.326 E602.92173
G0 F2142.9 X222.4 Y173.571
G1 F1575 X222.4 Y131.504 E607.95868
G0 F2142.9 X224 Y131.439
G1 F1575 X224 Y173.654 E613.01336
G0 F2142.9 X225.6 Y173.654
G1 F1575 X225.6 Y131.439 E618.06803
G0 F2142.9 X227.2 Y131.439
G1 F1575 X227.2 Y173.654 E623.12271
G0 F2142.9 X228.8 Y173.565
G1 F1575 X228.8 Y131.514 E628.15775
G0 F2142.9 X230.4 Y131.721
G1 F1575 X230.4 Y173.462 E633.15567
G0 F2142.9 X232 Y173.628
G1 F1575 X232 Y131.556 E638.19322
G0 F2142.9 X233.6 Y131.532
G1 F1575 X233.6 Y173.654 E643.23676
G0 F2142.9 X235.2 Y173.654
G1 F1575 X235.2 Y131.532 E648.2803
G0 F2142.9 X236.8 Y131.553
G1 F1575 X236.8 Y173.633 E653.31881
G0 F2142.9 X238.4 Y173.477
G1 F1575 X238.4 Y131.696 E658.32152
G0 F2142.9 X240 Y132.037
G1 F1575 X240 Y173.134 E663.24233
G0 F2142.9 X241.6 Y172.597
