;FLAVOR:RepRap
;TIME:481
;Filament used: 0.728776m
;Layer height: 0.2
;Generated with Cura_SteamEngine 3.0.3
T0
M190 S50
M104 S200
M109 S200
M82 ; absolute extrusion mode
G28 ;Home
G1 Z15.0 F6000 ;Move the platform down 15mm
;Prime the extruder
G92 E0
G1 F200 E3
G92 E0
M83 ; relative extrusion mode
;LAYER_COUNT:11
;LAYER:0
M107
G0 F1800 X141.5 Y131 Z0.3
;TYPE:WALL-INNER
G1 F1500 X158.5 Y131 E0.84813
G1 X158.5 Y169 E1.89583
G1 X141.5 Y169 E0.84813
G1 X141.5 Y131 E1.89583
G0 F1800 X141.1 Y130.6
G1 F1500 X158.9 Y130.6 E0.88805
G1 X158.9 Y169.4 E1.93574
G1 X141.1 Y169.4 E0.88805
G1 X141.1 Y130.6 E1.93574
G0 F1800 X141.17 Y130.67
G0 X158.83 Y169.33
G0 X159.3 Y169.8
;TYPE:WALL-OUTER
G1 F1500 X140.7 Y169.8 E0.92796
G1 X140.7 Y130.2 E1.97565
G1 X159.3 Y130.2 E0.92796
G1 X159.3 Y169.8 E1.97565
G0 F1800 X159.1 Y169.8
G0 X158.83 Y169.33
G0 X158.1 Y168.6
;TYPE:WALL-INNER
G1 F1500 X141.9 Y168.6 E0.80822
G1 X141.9 Y131.4 E1.85592
G1 X158.1 Y131.4 E0.80822
G1 X158.1 Y168.6 E1.85592
G0 F1800 X142.397 Y168.419
;TYPE:SKIN
G1 F1500 X142.078 Y168.1 E0.02251
G0 F1800 X142.078 Y167.534
G1 F1500 X142.963 Y168.419 E0.06244
G1 X143.033 Y168.489
G0 F1800 X143.529 Y168.419
G1 F1500 X142.078 Y166.969 E0.10234
G1 X142.008 Y166.899
G0 F1800 X142.078 Y166.403
G1 F1500 X144.094 Y168.419 E0.14224
G1 X144.164 Y168.489
G0 F1800 X144.66 Y168.419
G1 F1500 X142.078 Y165.837 E0.18217
G1 X142.008 Y165.767
G0 F1800 X142.078 Y165.272
G1 F1500 X145.226 Y168.419 E0.22207
G1 X145.296 Y168.489
G0 F1800 X145.791 Y168.419
G1 F1500 X142.078 Y164.706 E0.26197
G1 X142.008 Y164.636
G0 F1800 X142.078 Y164.14
G1 F1500 X146.357 Y168.419 E0.30191
G1 X146.427 Y168.489
G0 F1800 X146.923 Y168.419
G1 F1500 X142.078 Y163.575 E0.34181
G1 X142.008 Y163.505
G0 F1800 X142.078 Y163.009
G1 F1500 X147.489 Y168.419 E0.38174
G1 X147.559 Y168.489
G0 F1800 X148.054 Y168.419
G1 F1500 X142.078 Y162.443 E0.42164
G1 X142.008 Y162.373
G0 F1800 X142.078 Y161.877
G1 F1500 X148.62 Y168.419 E0.46157
G1 X148.69 Y168.489
G0 F1800 X149.186 Y168.419
G1 F1500 X142.078 Y161.312 E0.50147
G1 X142.008 Y161.242
G0 F1800 X142.078 Y160.746
G1 F1500 X149.751 Y168.419 E0.54137
G1 X149.821 Y168.489
G0 F1800 X150.317 Y168.419
G1 F1500 X142.078 Y160.18 E0.58131
G1 X142.008 Y160.11
G0 F1800 X142.078 Y159.615
G1 F1500 X150.883 Y168.419 E0.62121
G1 X150.953 Y168.489
G0 F1800 X151.448 Y168.419
G1 F1500 X142.078 Y159.049 E0.6611
G1 X142.008 Y158.979
G0 F1800 X142.078 Y158.483
G1 F1500 X152.014 Y168.419 E0.70104
G1 X152.084 Y168.489
G0 F1800 X152.58 Y168.419
G1 F1500 X142.078 Y157.918 E0.74094
G1 X142.008 Y157.848
G0 F1800 X142.078 Y157.352
G1 F1500 X153.145 Y168.419 E0.78084
G1 X153.215 Y168.489
G0 F1800 X153.711 Y168.419
G1 F1500 X142.078 Y156.786 E0.82077
G1 X142.008 Y156.716
G0 F1800 X142.078 Y156.221
G1 F1500 X154.277 Y168.419 E0.86067
G1 X154.347 Y168.489
G0 F1800 X154.842 Y168.419
G1 F1500 X142.078 Y155.655 E0.90057
G1 X142.008 Y155.585
G0 F1800 X142.078 Y155.089
G1 F1500 X155.408 Y168.419 E0.9405
G1 X155.478 Y168.489
G0 F1800 X155.974 Y168.419
G1 F1500 X142.078 Y154.524 E0.9804
G1 X142.008 Y154.454
G0 F1800 X142.078 Y153.958
G1 F1500 X156.54 Y168.419 E1.02034
G1 X156.61 Y168.489
G0 F1800 X157.105 Y168.419
G1 F1500 X142.078 Y153.392 E1.06024
G1 X142.008 Y153.322
G0 F1800 X142.078 Y152.826
G1 F1500 X157.671 Y168.419 E1.10017
G1 X157.741 Y168.489
G0 F1800 X157.92 Y168.102
G1 F1500 X142.078 Y152.261 E1.1177
G1 X142.008 Y152.191
G0 F1800 X142.078 Y151.695
G1 F1500 X157.92 Y167.536 E1.1177
G1 X157.99 Y167.606
G0 F1800 X157.92 Y166.971
G1 F1500 X142.078 Y151.129 E1.11774
G1 X142.008 Y151.059
G0 F1800 X142.078 Y150.564
G1 F1500 X157.92 Y166.405 E1.1177
G1 X157.99 Y166.475
G0 F1800 X157.92 Y165.839
G1 F1500 X142.078 Y149.998 E1.1177
G1 X142.008 Y149.928
G0 F1800 X142.078 Y149.432
G1 F1500 X157.92 Y165.274 E1.11774
G1 X157.99 Y165.344
G0 F1800 X157.92 Y164.708
G1 F1500 X142.078 Y148.867 E1.1177
G1 X142.008 Y148.797
G0 F1800 X142.078 Y148.301
G1 F1500 X157.92 Y164.142 E1.1177
G1 X157.99 Y164.212
G0 F1800 X157.92 Y163.577
G1 F1500 X142.078 Y147.735 E1.11774
G1 X142.008 Y147.665
G0 F1800 X142.078 Y147.17
G1 F1500 X157.92 Y163.011 E1.1177
G1 X157.99 Y163.081
G0 F1800 X157.92 Y162.445
G1 F1500 X142.078 Y146.604 E1.1177
G1 X142.008 Y146.534
G0 F1800 X142.078 Y146.038
G1 F1500 X157.92 Y161.88 E1.11774
G1 X157.99 Y161.95
G0 F1800 X157.92 Y161.314
G1 F1500 X142.078 Y145.473 E1.1177
G1 X142.008 Y145.403
G0 F1800 X142.078 Y144.907
G1 F1500 X157.92 Y160.748 E1.1177
G1 X157.99 Y160.818
G0 F1800 X157.92 Y160.183
G1 F1500 X142.078 Y144.341 E1.11774
G1 X142.008 Y144.271
G0 F1800 X142.078 Y143.776
G1 F1500 X157.92 Y159.617 E1.1177
G1 X157.99 Y159.687
G0 F1800 X157.92 Y159.051
G1 F1500 X142.078 Y143.21 E1.1177
G1 X142.008 Y143.14
G0 F1800 X142.078 Y142.644
G1 F1500 X157.92 Y158.485 E1.1177
G1 X157.99 Y158.555
G0 F1800 X157.92 Y157.92
G1 F1500 X142.078 Y142.078 E1.11774
G1 X142.008 Y142.008
G0 F1800 X142.078 Y141.513
G1 F1500 X157.92 Y157.354 E1.1177
G1 X157.99 Y157.424
G0 F1800 X157.92 Y156.788
G1 F1500 X142.078 Y140.947 E1.1177
G1 X142.008 Y140.877
G0 F1800 X142.078 Y140.381
G1 F1500 X157.92 Y156.223 E1.11774
G1 X157.99 Y156.293
G0 F1800 X157.92 Y155.657
G1 F1500 X142.078 Y139.816 E1.1177
G1 X142.008 Y139.746
G0 F1800 X142.078 Y139.25
G1 F1500 X157.92 Y155.091 E1.1177
G1 X157.99 Y155.161
G0 F1800 X157.92 Y154.526
G1 F1500 X142.078 Y138.684 E1.11774
G1 X142.008 Y138.614
G0 F1800 X142.078 Y138.119
G1 F1500 X157.92 Y153.96 E1.1177
G1 X157.99 Y154.03
G0 F1800 X157.92 Y153.394
G1 F1500 X142.078 Y137.553 E1.1177
G1 X142.008 Y137.483
G0 F1800 X142.078 Y136.987
G1 F1500 X157.92 Y152.829 E1.11774
G1 X157.99 Y152.899
G0 F1800 X157.92 Y152.263
G1 F1500 X142.078 Y136.422 E1.1177
G1 X142.008 Y136.352
G0 F1800 X142.078 Y135.856
G1 F1500 X157.92 Y151.697 E1.1177
G1 X157.99 Y151.767
G0 F1800 X157.92 Y151.132
G1 F1500 X142.078 Y135.29 E1.11774
G1 X142.008 Y135.22
G0 F1800 X142.078 Y134.725
G1 F1500 X157.92 Y150.566 E1.1177
G1 X157.99 Y150.636
G0 F1800 X157.92 Y150
G1 F1500 X142.078 Y134.159 E1.1177
G1 X142.008 Y134.089
G0 F1800 X142.078 Y133.593
G1 F1500 X157.92 Y149.434 E1.1177
G1 X157.99 Y149.504
G0 F1800 X157.92 Y148.869
G1 F1500 X142.078 Y133.027 E1.11774
G1 X142.008 Y132.957
G0 F1800 X142.078 Y132.462
G1 F1500 X157.92 Y148.303 E1.1177
G1 X157.99 Y148.373
G0 F1800 X157.92 Y147.737
G1 F1500 X142.078 Y131.896 E1.1177
G1 X142.008 Y131.826
G0 F1800 X142.327 Y131.579
G1 F1500 X157.92 Y147.172 E1.10017
G1 X157.99 Y147.242
G0 F1800 X157.92 Y146.606
G1 F1500 X142.893 Y131.579 E1.06024
G1 X142.823 Y131.509
G0 F1800 X143.459 Y131.579
G1 F1500 X157.92 Y146.04 E1.0203
G1 X157.99 Y146.11
G0 F1800 X157.92 Y145.475
G1 F1500 X144.024 Y131.579 E0.98044
G1 X143.954 Y131.509
G0 F1800 X144.59 Y131.579
G1 F1500 X157.92 Y144.909 E0.9405
G1 X157.99 Y144.979
G0 F1800 X157.92 Y144.343
G1 F1500 X145.156 Y131.579 E0.90057
G1 X145.086 Y131.509
G0 F1800 X145.721 Y131.579
G1 F1500 X157.92 Y143.778 E0.86071
G1 X157.99 Y143.848
G0 F1800 X157.92 Y143.212
G1 F1500 X146.287 Y131.579 E0.82077
G1 X146.217 Y131.509
G0 F1800 X146.853 Y131.579
G1 F1500 X157.92 Y142.646 E0.78084
G1 X157.99 Y142.716
G0 F1800 X157.92 Y142.081
G1 F1500 X147.419 Y131.579 E0.74094
G1 X147.349 Y131.509
G0 F1800 X147.984 Y131.579
G1 F1500 X157.92 Y141.515 E0.70104
G1 X157.99 Y141.585
G0 F1800 X157.92 Y140.949
G1 F1500 X148.55 Y131.579 E0.6611
G1 X148.48 Y131.509
G0 F1800 X149.116 Y131.579
G1 F1500 X157.92 Y140.384 E0.62121
G1 X157.99 Y140.454
G0 F1800 X157.92 Y139.818
G1 F1500 X149.681 Y131.579 E0.58131
G1 X149.611 Y131.509
G0 F1800 X150.247 Y131.579
G1 F1500 X157.92 Y139.252 E0.54137
G1 X157.99 Y139.322
G0 F1800 X157.92 Y138.686
G1 F1500 X150.813 Y131.579 E0.50144
G1 X150.743 Y131.509
G0 F1800 X151.378 Y131.579
G1 F1500 X157.92 Y138.121 E0.46157
G1 X157.99 Y138.191
G0 F1800 X157.92 Y137.555
G1 F1500 X151.944 Y131.579 E0.42164
G1 X151.874 Y131.509
G0 F1800 X152.51 Y131.579
G1 F1500 X157.92 Y136.989 E0.3817
G1 X157.99 Y137.059
G0 F1800 X157.92 Y136.424
G1 F1500 X153.075 Y131.579 E0.34184
G1 X153.005 Y131.509
G0 F1800 X153.641 Y131.579
G1 F1500 X157.92 Y135.858 E0.30191
G1 X157.99 Y135.928
G0 F1800 X157.92 Y135.292
G1 F1500 X154.207 Y131.579 E0.26197
G1 X154.137 Y131.509
G0 F1800 X154.772 Y131.579
G1 F1500 X157.92 Y134.727 E0.22211
G1 X157.99 Y134.797
G0 F1800 X157.92 Y134.161
G1 F1500 X155.338 Y131.579 E0.18217
G1 X155.268 Y131.509
G0 F1800 X155.904 Y131.579
G1 F1500 X157.92 Y133.595 E0.14224
G1 X157.99 Y133.665
G0 F1800 X157.92 Y133.03
G1 F1500 X156.47 Y131.579 E0.10234
G1 X156.4 Y131.509
G0 F1800 X157.035 Y131.579
G1 F1500 X157.92 Y132.464 E0.06244
G1 X157.99 Y132.534
G0 F1800 X157.92 Y131.898
G1 F1500 X157.601 Y131.579 E0.02251
G0 F1800 X141.5 Y131
;TIME_ELAPSED:87.602732
;LAYER:1
M140 S50
M106 S255
G0 F4500 X141.5 Y131 Z0.5
;TYPE:WALL-INNER
G1 F3750 X158.5 Y131 E0.56542
G1 X158.5 Y169 E1.26389
G1 X141.5 Y169 E0.56542
G1 X141.5 Y131 E1.26389
G0 F4500 X141.1 Y130.6
G1 F3750 X158.9 Y130.6 E0.59203
G1 X158.9 Y169.4 E1.29049
G1 X141.1 Y169.4 E0.59203
G1 X141.1 Y130.6 E1.29049
G0 F4500 X141.17 Y130.67
G0 X158.83 Y169.33
G0 X159.3 Y169.8
;TYPE:WALL-OUTER
G1 F2250 X140.7 Y169.8 E0.61864
G1 X140.7 Y130.2 E1.3171
G1 X159.3 Y130.2 E0.61864
G1 X159.3 Y169.8 E1.3171
G0 F4500 X159.1 Y169.8
G0 X158.83 Y169.33
G0 X158.1 Y168.6
;TYPE:WALL-INNER
G1 F3750 X141.9 Y168.6 E0.53881
G1 X141.9 Y131.4 E1.23728
G1 X158.1 Y131.4 E0.53881
G1 X158.1 Y168.6 E1.23728
G0 F4500 X157.415 Y168.419
;TYPE:SKIN
G1 F2250 X157.919 Y167.915 E0.02371
G0 F4500 X157.919 Y167.349
G1 F2250 X156.849 Y168.419 E0.05033
G1 X156.779 Y168.489
G0 F4500 X156.284 Y168.419
G1 F2250 X157.919 Y166.783 E0.07693
G1 X157.989 Y166.713
G0 F4500 X157.919 Y166.218
G1 F2250 X155.718 Y168.419 E0.10353
G1 X155.648 Y168.489
G0 F4500 X155.152 Y168.419
G1 F2250 X157.919 Y165.652 E0.13015
G1 X157.989 Y165.582
G0 F4500 X157.919 Y165.086
G1 F2250 X154.586 Y168.419 E0.15677
G1 X154.516 Y168.489
G0 F4500 X154.021 Y168.419
G1 F2250 X157.919 Y164.521 E0.18335
G1 X157.989 Y164.451
G0 F4500 X157.919 Y163.955
G1 F2250 X153.455 Y168.419 E0.20997
G1 X153.385 Y168.489
G0 F4500 X152.889 Y168.419
G1 F2250 X157.919 Y163.389 E0.2366
G1 X157.989 Y163.319
G0 F4500 X157.919 Y162.824
G1 F2250 X152.324 Y168.419 E0.26317
G1 X152.254 Y168.489
G0 F4500 X151.758 Y168.419
G1 F2250 X157.919 Y162.258 E0.28979
G1 X157.989 Y162.188
G0 F4500 X157.919 Y161.692
G1 F2250 X151.192 Y168.419 E0.31642
G1 X151.122 Y168.489
G0 F4500 X150.627 Y168.419
G1 F2250 X157.919 Y161.127 E0.34299
G1 X157.989 Y161.057
G0 F4500 X157.919 Y160.561
G1 F2250 X150.061 Y168.419 E0.36962
G1 X149.991 Y168.489
G0 F4500 X149.495 Y168.419
G1 F2250 X157.919 Y159.995 E0.39624
G1 X157.989 Y159.925
G0 F4500 X157.919 Y159.429
G1 F2250 X148.93 Y168.419 E0.42284
G1 X148.86 Y168.489
G0 F4500 X148.364 Y168.419
G1 F2250 X157.919 Y158.864 E0.44944
G1 X157.989 Y158.794
G0 F4500 X157.919 Y158.298
G1 F2250 X147.798 Y168.419 E0.47606
G1 X147.728 Y168.489
G0 F4500 X147.233 Y168.419
G1 F2250 X157.919 Y157.732 E0.50266
G1 X157.989 Y157.662
G0 F4500 X157.919 Y157.167
G1 F2250 X146.667 Y168.419 E0.52926
G1 X146.597 Y168.489
G0 F4500 X146.101 Y168.419
G1 F2250 X157.919 Y156.601 E0.55588
G1 X157.989 Y156.531
G0 F4500 X157.919 Y156.035
G1 F2250 X145.536 Y168.419 E0.58248
G1 X145.466 Y168.489
G0 F4500 X144.97 Y168.419
G1 F2250 X157.919 Y155.47 E0.60908
G1 X157.989 Y155.4
G0 F4500 X157.919 Y154.904
G1 F2250 X144.404 Y168.419 E0.6357
G1 X144.334 Y168.489
G0 F4500 X143.838 Y168.419
G1 F2250 X157.919 Y154.338 E0.66233
G1 X157.989 Y154.268
G0 F4500 X157.919 Y153.773
G1 F2250 X143.273 Y168.419 E0.6889
G1 X143.203 Y168.489
G0 F4500 X142.707 Y168.419
G1 F2250 X157.919 Y153.207 E0.71553
G1 X157.989 Y153.137
G0 F4500 X157.919 Y152.641
G1 F2250 X142.141 Y168.419 E0.74215
G1 X142.071 Y168.489
G0 F4500 X142.079 Y167.915
G1 F2250 X157.919 Y152.076 E0.74504
G1 X157.989 Y152.006
G0 F4500 X157.919 Y151.51
G1 F2250 X142.079 Y167.35 E0.74507
G1 X142.009 Y167.42
G0 F4500 X142.079 Y166.784
G1 F2250 X157.919 Y150.944 E0.74507
G1 X157.989 Y150.874
G0 F4500 X157.919 Y150.378
G1 F2250 X142.079 Y166.218 E0.74507
G1 X142.009 Y166.288
G0 F4500 X142.079 Y165.653
G1 F2250 X157.919 Y149.813 E0.74507
G1 X157.989 Y149.743
G0 F4500 X157.919 Y149.247
G1 F2250 X142.079 Y165.087 E0.74507
G1 X142.009 Y165.157
G0 F4500 X142.079 Y164.521
G1 F2250 X157.919 Y148.681 E0.74507
G1 X157.989 Y148.611
G0 F4500 X157.919 Y148.116
G1 F2250 X142.079 Y163.956 E0.74507
G1 X142.009 Y164.026
G0 F4500 X142.079 Y163.39
G1 F2250 X157.919 Y147.55 E0.74507
G1 X157.989 Y147.48
G0 F4500 X157.919 Y146.984
G1 F2250 X142.079 Y162.824 E0.74507
G1 X142.009 Y162.894
G0 F4500 X142.079 Y162.259
G1 F2250 X157.919 Y146.419 E0.74507
G1 X157.989 Y146.349
G0 F4500 X157.919 Y145.853
G1 F2250 X142.079 Y161.693 E0.74507
G1 X142.009 Y161.763
G0 F4500 X142.079 Y161.127
G1 F2250 X157.919 Y145.287 E0.74507
G1 X157.989 Y145.217
G0 F4500 X157.919 Y144.722
G1 F2250 X142.079 Y160.562 E0.74507
G1 X142.009 Y160.632
G0 F4500 X142.079 Y159.996
G1 F2250 X157.919 Y144.156 E0.74507
G1 X157.989 Y144.086
G0 F4500 X157.919 Y143.59
G1 F2250 X142.079 Y159.43 E0.74507
G1 X142.009 Y159.5
G0 F4500 X142.079 Y158.864
G1 F2250 X157.919 Y143.025 E0.74504
G1 X157.989 Y142.955
G0 F4500 X157.919 Y142.459
G1 F2250 X142.079 Y158.299 E0.74507
G1 X142.009 Y158.369
G0 F4500 X142.079 Y157.733
G1 F2250 X157.919 Y141.893 E0.74507
G1 X157.989 Y141.823
G0 F4500 X157.919 Y141.328
G1 F2250 X142.079 Y157.167 E0.74504
G1 X142.009 Y157.237
G0 F4500 X142.079 Y156.602
G1 F2250 X157.919 Y140.762 E0.74507
G1 X157.989 Y140.692
G0 F4500 X157.919 Y140.196
G1 F2250 X142.079 Y156.036 E0.74507
G1 X142.009 Y156.106
G0 F4500 X142.079 Y155.47
G1 F2250 X157.919 Y139.63 E0.74507
G1 X157.989 Y139.56
G0 F4500 X157.919 Y139.065
G1 F2250 X142.079 Y154.905 E0.74507
G1 X142.009 Y154.975
G0 F4500 X142.079 Y154.339
G1 F2250 X157.919 Y138.499 E0.74507
G1 X157.989 Y138.429
G0 F4500 X157.919 Y137.933
G1 F2250 X142.079 Y153.773 E0.74507
G1 X142.009 Y153.843
G0 F4500 X142.079 Y153.208
G1 F2250 X157.919 Y137.368 E0.74507
G1 X157.989 Y137.298
G0 F4500 X157.919 Y136.802
G1 F2250 X142.079 Y152.642 E0.74507
G1 X142.009 Y152.712
G0 F4500 X142.079 Y152.076
G1 F2250 X157.919 Y136.236 E0.74507
G1 X157.989 Y136.166
G0 F4500 X157.919 Y135.671
G1 F2250 X142.079 Y151.511 E0.74507
G1 X142.009 Y151.581
G0 F4500 X142.079 Y150.945
G1 F2250 X157.919 Y135.105 E0.74507
G1 X157.989 Y135.035
G0 F4500 X157.919 Y134.539
G1 F2250 X142.079 Y150.379 E0.74507
G1 X142.009 Y150.449
G0 F4500 X142.079 Y149.814
G1 F2250 X157.919 Y133.974 E0.74507
G1 X157.989 Y133.904
G0 F4500 X157.919 Y133.408
G1 F2250 X142.079 Y149.248 E0.74507
G1 X142.009 Y149.318
G0 F4500 X142.079 Y148.682
G1 F2250 X157.919 Y132.842 E0.74507
G1 X157.989 Y132.772
G0 F4500 X157.919 Y132.277
G1 F2250 X142.079 Y148.116 E0.74504
G1 X142.009 Y148.186
G0 F4500 X142.079 Y147.551
G1 F2250 X157.919 Y131.711 E0.74507
G1 X157.989 Y131.641
G0 F4500 X157.485 Y131.579
G1 F2250 X142.079 Y146.985 E0.72465
G1 X142.009 Y147.055
G0 F4500 X142.079 Y146.419
G1 F2250 X156.919 Y131.579 E0.69803
G1 X156.989 Y131.509
G0 F4500 X156.354 Y131.579
G1 F2250 X142.079 Y145.854 E0.67145
G1 X142.009 Y145.924
G0 F4500 X142.079 Y145.288
G1 F2250 X155.788 Y131.579 E0.64483
G1 X155.858 Y131.509
G0 F4500 X155.222 Y131.579
G1 F2250 X142.079 Y144.722 E0.61821
G1 X142.009 Y144.792
G0 F4500 X142.079 Y144.157
G1 F2250 X154.656 Y131.579 E0.59161
G1 X154.726 Y131.509
G0 F4500 X154.091 Y131.579
G1 F2250 X142.079 Y143.591 E0.56501
G1 X142.009 Y143.661
G0 F4500 X142.079 Y143.025
G1 F2250 X153.525 Y131.579 E0.53838
G1 X153.595 Y131.509
G0 F4500 X152.959 Y131.579
G1 F2250 X142.079 Y142.46 E0.51179
G1 X142.009 Y142.53
G0 F4500 X142.079 Y141.894
G1 F2250 X152.394 Y131.579 E0.48519
G1 X152.464 Y131.509
G0 F4500 X151.828 Y131.579
G1 F2250 X142.079 Y141.328 E0.45856
G1 X142.009 Y141.398
G0 F4500 X142.079 Y140.763
G1 F2250 X151.262 Y131.579 E0.43196
G1 X151.332 Y131.509
G0 F4500 X150.697 Y131.579
G1 F2250 X142.079 Y140.197 E0.40536
G1 X142.009 Y140.267
G0 F4500 X142.079 Y139.631
G1 F2250 X150.131 Y131.579 E0.37874
G1 X150.201 Y131.509
G0 F4500 X149.565 Y131.579
G1 F2250 X142.079 Y139.065 E0.35212
